!!!!SEGMENT: pl-wtm--r-2022_smietanski-emil-wladyslaw--polonaise-de-concert-op-17.krn
!!!cenid: 18xx:2004
!!!COM: Śmietański, Emil Władysław
!!!COM-rismid: pe50041781
!!!CDT: 1845-1886
!!!CNT: Polish
!!!OTL: Polonaise de Concert op. 17
!!!PDT: 1867
!!!AGN: Secular; Polonaise
!!!SMS-siglum: PL-Wtm
!!!SMS-shelfmark: R 2022
!!!SMS-shelfwork: W
!!!SMS-variant:
!!!SMS-altvar:
!!!NIFC-rismid: 1001112343
!!!URL-scan: http://repozytorium.nifc.pl/skany/pl-wtm-nut--r2022
!!!ONB-nifc:
!!!key:
**kern	**kern	**dynam	**kern	**fing	**dynam
*part2	*part1	*part1	*part3	*	*part3
*staff2	*staff1	*	*staff3	*	*
*Iempty	*Iforte	*	*Ivioln	*	*
*	*I"fortepian	*	*I"Skrzypce	*	*
*clefF4	*clefG2	*	*clefG2	*	*
*k[]	*k[]	*	*k[]	*	*
*C:	*C:	*	*C:	*	*
*M3/4	*M3/4	*	*M3/4	*	*
=1	=1	=1	=1	=1	=1
!	!	!	!LO:TX:a:i:t=Tempo di Polacca	!	!
!LO:TX:t=P:problem=mixed beam	!	!	!LO:TX:a:i:t=18	!	!
8CC'/L	2r	.	2r	.	.
16G'\L	.	.	.	.	.
16G'\JJ	.	.	.	.	.
8c\L 8E'\	.	.	.	.	.
8G'\J	.	.	.	.	.
8c\L 8E'\	4r	.	4r	.	.
8G'\J	.	.	.	.	.
=2	=2	=2	=2	=2	=2
!LO:TX:t=P:problem=mixed beam	!	!	!	!	!
8CC/L	2r	.	2.r	.	.
16G\L	.	.	.	.	.
16G\JJ	.	.	.	.	.
8c\L 8E\	.	.	.	.	.
8G\J	.	.	.	.	.
8c\L 8E\	4r	.	.	.	.
8G\J	.	.	.	.	.
=3	=3	=3	=3	=3	=3
!LO:TX:t=P:problem=mixed beam	!	!	!	!	!
8CC/L	4ee\ 4cc\ 4e\	f	2.r	.	.
16G\L	.	.	.	.	.
16G\JJ	.	.	.	.	.
8c\L 8E\	4ff\ 4dd\ 4f\	.	.	.	.
8G\J	.	.	.	.	.
8c\L 8F#X\	4ff#X\ 4dd#X\ 4f#X\	.	.	.	.
8G\J	.	.	.	.	.
=4	=4	=4	=4	=4	=4
!LO:TX:t=P:problem=mixed beam	!	!	!	!	!
8CC/L	(4gg\ 4ee\ 4g\	.	2.r	.	.
8G\J	.	.	.	.	.
8c\L	8cccc\ 8ccc\)	.	.	.	.
8G\J	16cc\LL	.	.	.	.
.	16dd\JJ	.	.	.	.
8c\L 8E\	8.eet\L	.	.	.	.
8G\J	.	.	.	.	.
.	16dd#X\Jk	.	.	.	.
=5	=5	=5	=5	=5	=5
!LO:TX:t=P:problem=mixed beam	!	!	!	!	!
8CC/L	16ee\LL 16cc\ 16e\	.	2.r	.	.
.	16aa\	.	.	.	.
16Gn\L	16aa\	.	.	.	.
16G\JJ	16gg\JJ	.	.	.	.
8c\L 8F\	4ff\ 4dd\ 4f\	.	.	.	.
8A\J	.	.	.	.	.
8c\L 8F#X\	4ff#X\ 4dd#X\ 4f#X\	.	.	.	.
8G\J	.	.	.	.	.
=6	=6	=6	=6	=6	=6
!LO:TX:t=P:problem=mixed beam	!	!	!	!	!
8CC/L	(4gg\ 4ee\ 4g\	.	2.r	.	.
8G\J	.	.	.	.	.
8c\L	4cccc\ 4ccc\)	.	.	.	.
8G\J	.	.	.	.	.
8E\L	8.cc\L 8.g\ 8.c\	.	.	.	.
8G\J	.	.	.	.	.
.	16cc\Jk 16g\ 16c\	.	.	.	.
!LO:LB:g=original	!LO:LB:g=original	!	!	!	!
=7	=7	=7	=7	=7	=7
!LO:TX:t=P:problem=mixed beam	!	!	!	!	!
8GGG/L	4b\ 4g\ 4B\	<	2.r	.	.
16G\L	.	.	.	.	.
16G\JJ	.	.	.	.	.
8A\L 8F\	4cc\ 4a\ 4c\	.	.	.	.
8G\J	.	.	.	.	.
8A#X\L 8F\	4cc#X\ 4a#X\ 4c#X\	.	.	.	.
8G\J	.	.	.	.	.
=8	=8	=8	=8	=8	=8
!LO:TX:t=P:problem=mixed beam	!	!	!	!	!
8GGG/L	4dd\ 4b\ 4d\	.	2.r	.	.
8G\J	.	.	.	.	.
8B\L	8ggg\ 8gg\	[	.	.	.
8G\J	16g\LL	.	.	.	.
.	16a\JJ	.	.	.	.
8B\L 8F\	8.bt\L	.	.	.	.
8G\J	.	.	.	.	.
.	16a#X\Jk	.	.	.	.
=9	=9	=9	=9	=9	=9
!LO:TX:t=P:problem=mixed beam	!	!	!	!	!
8GGG/L	16b\LL 16g\ 16B\	.	2.r	.	.
.	16ee\	.	.	.	.
16G\L	16ee\	.	.	.	.
16G\JJ	16dd\JJ	.	.	.	.
8A\L 8F\	4cc\ 4a\ 4c\	.	.	.	.
8G\J	.	.	.	.	.
8A#X\L 8F\	4cc#X\ 4a#X\ 4c#X\	.	.	.	.
8G\J	.	.	.	.	.
=10	=10	=10	=10	=10	=10
!LO:TX:t=P:problem=mixed beam	!	!	!	!	!
8GGG/L	8dd\ 8b\ 8d\	.	2.r	.	.
16G\L	(8g\L	.	.	.	.
16G\JJ	.	.	.	.	.
8G\L	8ggg\J)	.	.	.	.
8GG\J	16ff\LL 16dd\	.	.	.	.
.	16ee\JJ 16cc\	.	.	.	.
4G\	8dd\L 8g\	.	.	.	.
.	8cc\J 8e\	.	.	.	.
=11	=11	=11	=11	=11	=11
!LO:TX:t=P:problem=mixed beam	!	!	!	!	!
8GGG/L	8b\ 8d\	.	2.r	.	.
16G\L	(8g\L	.	.	.	.
16G\JJ	.	.	.	.	.
8G\L	8ggg\J)	.	.	.	.
8GG\J	16ff\LL 16dd\	.	.	.	.
.	16ee\JJ 16cc\	.	.	.	.
4G\	8dd\L 8g\	.	.	.	.
.	8cc\J 8e\	.	.	.	.
=12	=12	=12	=12	=12	=12
4G\ 4GG\	16b\LL 16d\	.	2.r	.	.
.	16a\ 16f#X\	.	.	.	.
.	16b\ 16g\	.	.	.	.
.	16cc\JJ 16a\	.	.	.	.
4B\ 4G\	4.dd\ 4.b\	.	.	.	.
4B\ 4G\	.	.	.	.	.
.	8dd\ 8b\	.	.	.	.
!LO:LB:g=original	!LO:LB:g=original	!	!	!	!
=13	=13	=13	=13	=13	=13
4G\ 4GG\	16dd\LL 16b\	.	2.r	.	.
.	16aa\	.	.	.	.
.	16aa\	.	.	.	.
.	16gg\JJ	.	.	.	.
4f\ 4G\	4.dd\ 4.b\	.	.	.	.
4f\ 4G\	.	.	.	.	.
.	8dd\ 8b\	.	.	.	.
=14	=14	=14	=14	=14	=14
*^	*	*	*	*	*
4f/	2.G\	16dd\LL 16b\	.	2.r	.	.
.	.	16aa\	.	.	.	.
.	.	16aa\	.	.	.	.
.	.	16gg\JJ	<	.	.	.
4f#X/	.	16ee-X\LL 16cc\	.	.	.	.
.	.	16aa\	.	.	.	.
.	.	16aa\	.	.	.	.
.	.	16gg\JJ	.	.	.	.
4g/	.	16een\LL 16cc#X\	.	.	.	.
.	.	16aa\	.	.	.	.
.	.	16aa\	.	.	.	.
.	.	16gg\JJ	.	.	.	.
=15	=15	=15	=15	=15	=15	=15
4a/	2.G\	16ff\LL 16dd\	.	2.r	.	.
.	.	16aa\	.	.	.	.
.	.	16aa\	.	.	.	.
.	.	16gg\JJ	.	.	.	.
4b-X/	.	16ff#X\LL 16dd#X\	.	.	.	.
.	.	16aa\	.	.	.	.
.	.	16aa\	.	.	.	.
.	.	16gg\JJ	.	.	.	.
4bn/	.	16gg\LL 16ee\	.	.	.	.
.	.	16aa\	.	.	.	.
.	.	16aa\	[	.	.	.
.	.	16gg\JJ	.	.	.	.
*v	*v	*	*	*	*	*
=16	=16	=16	=16	=16	=16
*	*^	*	*	*	*
8b\ 8G\	2.ggTT/	8ff\	.	2.r	.	.
(8GG\L	.	8ryy	.	.	.	.
8g\J)	.	2ryy	.	.	.	.
!LO:TX:a:i:t=ms.	!	!	!	!	!	!
16ff>\LL 16dd>\	.	.	.	.	.	.
16ee>\JJ 16cc>\	.	.	.	.	.	.
8dd>\L 8g>\	.	.	.	.	.	.
8cc>\J 8e>\	.	.	.	.	.	.
*	*v	*v	*	*	*	*
=17	=17	=17	=17	=17	=17
16b>\LL 16f>\ 16G>\	2.ggTT/	.	2.r	.	.
16a>\	.	.	.	.	.
16b>\	.	.	.	.	.
16cc>\JJ	.	.	.	.	.
4.dd>\ 4.b>\	.	.	.	.	.
8dd>\ 8b>\	.	.	.	.	.
!LO:LB:g=original	!LO:LB:g=original	!	!	!	!
=18	=18	=18	=18	=18	=18
2.gTT\	16dd\LL 16b\	.	2.r	.	.
.	16aa\	.	.	.	.
.	16aa\	.	.	.	.
.	16gg\JJ	.	.	.	.
.	4.ff\ 4.b\	.	.	.	.
.	8ff\ 8b\	.	.	.	.
=19	=19	=19	=19	=19	=19
!	!LO:TX:t=P:problem=kreska taktowa z wężykiem	!	!	!	!
[2GTT\	2.ff\ 2.b\	.	2.bbtt/	.	.
4GTT\]	.	.	.	.	.
32qqF#X\LLL	.	.	32qqaa/LLL	.	.
32qqG\JJJ	.	.	32qqbb/JJJ	.	.
=20||	=20||	=20||	=20||	=20||	=20||
2C/	8ee\L 8cc'\	p	8ccc'\	.	.
!	!	!	!	!	!LO:DY:rj
.	8g\J 8e'\	.	(8cc\	.	p
!	!	!	!LO:TX:t=P:problem=główka nuty - romb (flażolet)	!	!
.	8g\L 8e'\	.	8cccc\)	.	.
.	8g\J 8e'\	.	16cc'\LL	.	.
.	.	.	16dd'\JJ	.	.
4C/	8g#X\L 8e'\	.	8.eett\L	.	.
.	8g#\J 8e'\	.	.	.	.
.	.	.	16dd#X\Jk	.	.
=21	=21	=21	=21	=21	=21
8C/L	8a\L 8e\	.	(16ee\LL	.	.
.	.	.	16aa\	.	.
8C#X/J	8a\J 8e\	.	16aa\	.	.
.	.	.	16gg\JJ)	.	.
4D/	4.a\ 4.d\	.	(4.ff\	.	.
4DD/	.	.	.	.	.
.	8cc\ 8e-X\	.	8ff#X\	.	.
=22	=22	=22	=22	=22	=22
2.GG/	8b\L 8d'\	.	8gg'\)	.	.
.	8b\J 8d'\	.	(8g\L	.	.
!	!	!	!LO:TX:t=P:problem=główka nuty - romb (flażolet)	!	!
!	!LO:TX:a:i:t=rallent	!	!LO:TX:b:i:t=riten.	!	!
.	8b\L 8d'\	.	8eee\J)	.	.
!	!.	!	!	!	!
.	8b\J 8d'\	.	16ffn'\LL	.	.
.	.	.	16ee'\JJ	.	.
.	8b\L 8d'\	.	8dd'\L	.	.
.	8a\J 8e-X'\	.	8cc'\J	.	.
=23	=23	=23	=23	=23	=23
.	.	.	(>16qqcc/	.	.
2.GGG/	8.g\L 8.d\	.	16b\LL	.	.
.	.	.	16a\)	.	.
.	.	.	16b'\	.	.
.	16g\Jk 16en\	.	16cc'\JJ	.	.
.	4.g\ 4.f\	.	4.dd\	.	.
.	8g\ 8d\	.	8g\	.	.
!LO:LB:g=original	!LO:LB:g=original	!	!	!	!
=24	=24	=24	=24	=24	=24
8.C/L	8.g/L 8.c/	.	(16ee\LL	.	.
.	.	.	16gg\)	.	.
.	.	.	16ff#X'\	.	.
16AA/Jk	16f#X/Jk 16c/	.	16dd#X'\JJ	.	.
2GG/	8g/L 8B/	.	4.ee\	.	.
.	.	<	.	.	.
.	8g/J 8B/	.	.	.	.
.	8g/L 8B/	.	.	.	.
.	8a/J 8c#X/	[[	8ee\	.	.
=25	=25	=25	=25	=25	=25
!	!	!	!	!	!LO:HP:a
.	.	.	32qqee/	.	<
8FF/L	8a/L 8A/	.	16dd\LL	.	.
.	.	.	16cc#X\	.	.
8AA/J	16a/L 16B/	<	16dd\	.	.
.	16c#X/JJ	.	16ee\JJ	.	.
4.DD/	4.a/ 4.d/	.	16ff\LL	.	.
.	.	.	16ee\	.	.
.	.	.	16ff\	.	.
.	.	.	16gg\JJ	.	.
.	.	.	(8aa^^\L	.	[
8EE/	8c#X/	[ > ]]	8a\J)	.	.
=26	=26	=26	=26	=26	=26
2.FF/	4d/	.	(16a\LL	.	.
.	.	.	16ff\	.	.
.	.	.	16ff\	.	.
.	.	.	16a\JJ)	.	.
.	2a-X/ 2c^^</	.	(4ff\	.	.
.	.	.	8.ee\L	.	.
.	.	.	16dd\Jk)	.	.
=27	=27	=27	=27	=27	=27
2.GG/	2.g/ 2.B/	.	(16dd\LL	.	.
.	.	.	16b\JJ)	.	.
.	.	.	(16g'\LL	.	<
.	.	.	16a'\	.	.
.	.	.	16b'\	.	.
.	.	.	16cc'\	.	.
.	.	.	16dd'\	.	.
.	.	.	16ee'\	.	.
.	.	.	16ff'\	.	.
.	.	.	16gg'\	.	.
.	.	.	16aa'\	.	.
.	.	.	16bb'\JJ)	.	[[
=28	=28	=28	=28	=28	=28
2C/	8g\L 8e\	.	8ccc'\	.	f
!	!	!LO:DY:rj	!	!	!
.	8g\J 8e\	p	(8cc\L	.	.
!	!	!	!LO:TX:t=P:problem=główka nuty - romb (flażolet)	!	!
.	8g\L 8e\	.	8cccc\J)	.	.
.	8g\J 8e\	.	16cc\LL	.	.
.	.	.	16dd\JJ	.	.
4BB/	8g#X\L 8e\	.	8.eett\L	.	.
.	8g#\J 8e\	.	.	.	.
.	.	.	16dd#X\Jk	.	.
!	!	!	!LO:LB:g=original	!	!
=29	=29	=29	=29	=29	=29
!	!	!	!LO:TX:a:i:t=con bravura	!	!
2C/	8gn\L 8e\	.	(16ee\LL	.	.
.	.	.	16cc\)	.	.
.	16c\L	.	16g'\	.	.
.	16c\JJ	.	16e'\JJ	.	.
.	8e\L	.	16g'\LL	.	.
.	.	.	16cc'\	.	.
.	8g\J 8e\	.	16ee'\	.	.
.	.	.	16gg'\JJ	.	.
4BB/	8g#X\L 8e\	.	8ccc\	.	.
.	8g#\J 8e\	.	8r	.	.
=30	=30	=30	=30	=30	=30
2AA/	8a\L 8c\	.	8aa'\	.	.
.	8e\J 8c\	.	(8a\L	.	.
!	!	!	!LO:TX:t=P:problem=główka nuty - romb (flażolet)	!	!
.	8e/L 8c/	.	8aaa\J)	.	.
.	8e/J 8c/	.	16a\LL	.	.
.	.	.	16b\JJ	.	.
!	!	!LO:DY:a:t=f	!	!	!
4GG#X/	8e#/L 8c/	f	8.ccTT\L	.	.
.	8e#/J 8c/	.	.	.	.
.	.	.	16b\Jk	.	.
=31	=31	=31	=31	=31	=31
4AA/	8e#/L 8c/	.	(16cc\LL	.	.
.	.	.	16a\JJ)	.	.
.	16A/L	.	16e'/LL	.	.
.	16A/JJ	.	16c'/JJ	.	.
4AAA/	8c/L	.	16e'/LL	.	.
.	.	.	16a'/	.	.
.	8e#/J 8c/	.	16cc'/	.	.
.	.	.	16ee'/JJ	.	.
4r	8e#/L 8c/	.	8aa/	.	.
.	8e#/J 8c/	.	8r	.	.
=32	=32	=32	=32	=32	=32
2FF/	8c/L 8A/	.	8ff'\	.	p
.	8c/J 8A/	.	(8a\L	.	.
!	!	!	!LO:TX:t=P:problem=główka nuty - romb (flażolet)	!	!
.	8c/L 8A/	.	8fff\J)	.	.
.	8c/J 8A/	.	16f/LL	.	.
.	.	.	16g/JJ	.	.
!	!LO:TX:t=P:problem=c# przeprawione  na d-	!	!	!	!
!	!LO:TX:a:i:t=des\na	!	!	!	!
4EE/	8d-X/L 8A/	.	8.att</L	.	.
!	!LO:TX:t=P:problem=c# przeprawione  na d-	!	!	!	!
.	8d-/J 8A/	.	.	.	.
.	.	.	16g#X/Jk	.	.
=33	=33	=33	=33	=33	=33
!	!LO:TX:t=P:problem=kasownik przekreślony	!	!	!	!LO:DY:a
4FF/	4c/ 4A/	.	8a/L	.	f
.	.	.	8a/J 8f/ 8c/	.	.
4r	4r	.	8a/L 8f/ 8Bn/	.	.
.	.	.	8a/J 8f/ 8c/	.	.
4AA/	4A/	.	8a/L 8e/ 8c#X/	.	.
.	.	.	8a/J 8e/ 8A/	.	.
!	!	!	!LO:LB:g=original	!	!
=34	=34	=34	=34	=34	=34
2FF/	8c/L 8A/	.	8r	.	.
.	8c/J 8A/	.	(8f\L	.	.
!	!	!	!LO:TX:t=P:problem=główka nuty - romb (flażolet)	!	!
.	8c/L 8A/	.	8fff'\J)	.	.
.	8c/J 8A/	.	16f\LL	.	.
.	.	.	16g\JJ	.	.
!	!LO:TX:t=P:problem=c# przeprawione  na d-	!	!	!	!
!	!LO:TX:a:i:t=des\na	!	!	!	!
4EE/	8d-X/L 8A/	.	8.att\L	.	.
!	!LO:TX:t=P:problem=c# przeprawione  na d-	!	!	!	!
.	8d-/J 8A/	.	.	.	.
.	.	.	16g#X\Jk	.	.
=35	=35	=35	=35	=35	=35
4FF/	4c/ 4A/	.	8a/L	.	.
.	.	.	8a/J 8f/ 8c/	.	.
4r	4r	.	8a/L 8f/ 8Bn/	.	.
.	.	.	8a/J 8f/ 8c/	.	.
4AA/	4A/	.	8a/L 8e/ 8c#X/	.	.
.	.	.	8a/J 8e/ 8A/	.	.
!LO:LB:g=original	!LO:LB:g=original	!	!	!	!
=36	=36	=36	=36	=36	=36
2FF/ 2FFF/	8c/L 8A/	.	8r	.	.
.	8c/J 8A/	.	(8f\L	.	.
!	!	!	!LO:TX:t=P:problem=główka nuty - romb (flażolet)	!	!
.	8c/L 8A/	.	8fff\J)	.	.
.	.	<	.	.	.
.	8c/J 8A/	.	16f\LL	.	.
.	.	.	16g\JJ	.	.
!	!LO:TX:t=P:problem=c# przeprawione  na d-	!	!	!	!
!	!LO:TX:a:i:t=des\na	!	!	!	!
4EE/ 4EEE/	8d-X/L 8A/	.	8.att\L	.	.
!	!LO:TX:t=P:problem=c# przeprawione  na d-	!	!	!	!
.	8d-/J 8A/	.	.	.	.
.	.	.	16g#X\Jk	.	.
=37	=37	=37	=37	=37	=37
2.FF/ 2.FFF/	4c/ 4A/	.	8a'/L	.	.
.	.	.	(16f'/L	.	.
.	.	.	16g#X'/JJ)	.	.
.	4f/ 4A/	.	8a'/L	.	.
.	.	.	(16a'/L	.	.
.	.	.	16b'/JJ)	.	.
.	4a/ 4A/	[[	8cc'/L	.	.
.	.	.	(16cc'/L	.	.
.	.	.	16dd'/JJ)	.	.
=38	=38	=38	=38	=38	=38
2EE/	8B/L 8G#X/	<	8ee/	.	.
!	!	!	!LO:TX:t=P:problem=mixed beam	!	!
.	8B/J 8G#/	.	(8e/L	.	.
!	!	!	!LO:TX:t=P:problem=główka nuty - romb (flażolet)	!	!
.	8B/L 8G#/	.	8eee\J)	.	.
.	8B/J 8G#/	.	16e/LL	.	.
.	.	.	16f#X/JJ	.	.
!	!LO:TX:a:i:t=c.\ngis	!	!	!	!
!	!LO:TX:t=P:problem=B# przekreslone	!	!	!	!
4DD#X/	8B#/L 8G#/	.	8.g#Xtt</L	.	.
!	!LO:TX:t=P:problem=B# przekreslone	!	!	!	!
.	8B#/J 8G#/	.	.	.	.
.	.	.	16f##X/Jk	.	.
!	!	!	!LO:LB:g=original	!	!
=39	=39	=39	=39	=39	=39
2.EE/	4Bn/ 4G#X/	.	8g#X'/L	.	.
.	.	.	(16e'/L	.	.
.	.	.	16f#X'/JJ)	.	.
.	4e/ 4G#/	.	8g#'/L	.	.
.	.	.	(16g#'/L	.	.
.	.	.	16a'/JJ)	.	.
.	4g#X/ 4G#/	[[	8b'/L	.	.
.	.	.	(16b'/L	.	.
.	.	.	16cc'/JJ)	.	.
=40	=40	=40	=40	=40	=40
!LO:TX:t=P:problem=EE# przeprawione na FF	!	!	!LO:TX:b:i:t=cresc.:ext=ut:problem=dynamics with extention lines	!	!LO:HP:t=cresc.
2FF/	8g#X/L 8G#X/	.	8dd'/	.	<
.	8g#/J 8d/	<	(8b\L	.	.
!	!	!	!LO:TX:t=P:problem=główka nuty - romb (flażolet)	!	!
.	8g#/L 8d/	.	8bbb\J)	.	.
.	8g#/J 8d/	.	16b\LL	.	.
.	.	.	16cc\JJ	.	.
!LO:TX:t=P:problem=kasownik przekreslony	!	!	!	!	!
4EEn/	8g#/L 8d/	.	8.ddTT\L	.	.
.	8g#/J 8d/	.	.	.	.
.	.	.	16cc#X\Jk	.	.
=41	=41	=41	=41	=41	=41
!LO:TX:t=P:problem=EE# przeprawione  na FF	!	!	!	!	!
2.FF/	4g#X/ 4d/	.	8dd'\L	.	.
.	.	.	(16b'\L	.	.
.	.	.	16cc#X'\JJ)	.	.
.	4b/ 4d/	.	8dd'\L	.	.
.	.	.	(16dd'\L	.	.
.	.	.	16ee'\JJ)	.	.
.	4dd/ 4d/	[[	8ff'\L	.	.
.	.	.	(16ff'\L	.	.
.	.	.	16gg#X'\JJ)	.	.
!LO:PB:g=original	!LO:PB:g=original	!	!	!	!
=42	=42	=42	=42	=42	=42
!LO:TX:t=P:problem=E# przeprawione na F	!	!	!	!	!
!LO:TX:t=P:problem=EE# przeprawione na FF	!	!	!	!	!
2.E/ 2.EE/	4dd\ 4d\	<	8bb'\L	.	.
.	.	.	(16ee'\L	.	.
.	.	.	16ff#X'\JJ)	.	.
.	4dd\ 4g#X\	.	8gg#X'\L	.	.
.	.	.	(16gg#'\L	.	.
.	.	.	16aa'\JJ)	.	.
.	4gg#X\ 4g#\	.	8bb'\L	.	.
.	.	.	(16bb'\L	.	.
.	.	.	16ccc'\JJ)	.	.
=43	=43	=43	=43	=43	=43
2.F/ 2.FF/	4gg#X\ 4g#X\	.	8ddd'\L	.	.
.	.	.	(16bb'\L	.	.
.	.	.	16ccc#X'\JJ)	.	.
.	4bb\ 4b\	.	8ddd'\L	.	[
.	.	.	(16ddd'\L	.	.
.	.	.	16eee'\JJ)	.	.
.	4ddd\ 4dd\	[[	8fff'\L	.	.
.	.	.	(16fff'\L	.	.
.	.	.	16ggg#X'\JJ)	.	.
!	!	!	!LO:LB:g=original	!	!
=44	=44	=44	=44	=44	=44
2.E\ 2.EE\	8ddd\L 8dd\	.	8bbb\L	.	.
!	!LO:TX:i:b:t=ritenuto	!	!	!	!LO:DY:a
.	8g#X\J 8d\	.	16b\L	.	p
.	.	.	16cc\JJ	.	.
.	8g#\L 8d\	.	4.ddTT\	.	.
.	8g#\J 8d\	.	.	.	.
.	8g#\L 8d\	.	.	.	.
.	8g#\J 8d\	.	8cc#X\	.	.
=45	=45	=45	=45	=45	=45
2.F\ 2.FF\	8a\L 8d\	.	(16dd\LL	.	.
.	.	.	16gg\	.	.
.	8a\J 8d\	.	16gg\	.	.
.	.	.	16ff\JJ)	.	.
.	8a\L 8d\	.	4.dd\	.	.
.	8a\J 8d\	.	.	.	.
.	8a\L 8d\	.	.	.	.
.	8a\J 8d\	.	8dd\	.	.
=46	=46	=46	=46	=46	=46
2.E\ 2.EE\	8r	.	8bb\L	.	.
.	8g#X\L 8d\	.	16b\L	.	.
.	.	.	16cc\JJ	.	.
.	8g#\ 8d\	.	4.ddTT\	.	.
.	8g#\ 8d\	.	.	.	.
.	8g#\ 8d\	.	.	.	.
.	8g#\J 8d\	.	8cc#X\	.	.
=47	=47	=47	=47	=47	=47
2.F\ 2.FF\	4a\ 4d\	.	(16dd\LL	.	.
.	.	.	16gg\	.	.
.	.	.	16gg\	.	.
.	.	.	16ff\JJ)	.	.
.	4a\ 4d\	.	4.dd\	.	.
.	4a\ 4d\	.	.	.	.
.	.	.	8dd\	.	.
=48	=48	=48	=48	=48	=48
2.E\ 2.EE\	2.g#X\ 2.d\	f	8bb\L	.	.
!	!	!	!	!	!LO:DY:a
.	.	.	(16e'\L	.	pp
.	.	.	16f#X'\JJ	.	.
.	.	.	16g#X'\LL	.	.
.	.	.	16a'\	.	.
.	.	.	16b'\	.	.
.	.	.	16cc'\	.	.
.	.	.	16dd'\	.	.
.	.	.	16ee'\	.	.
.	.	.	16ff#X'\	.	.
.	.	.	16gg#X'\JJ)	.	.
!LO:LB:g=original	!LO:LB:g=original	!	!LO:LB:g=original	!	!
=49	=49	=49	=49	=49	=49
2.AA/ 2.AAA/	2.a\ 2.c\	.	8aa\L	.	.
.	.	.	(16a'\L	.	.
.	.	.	16b'\JJ	.	.
.	.	.	16cc'\LL	.	.
.	.	.	16dd'\	.	.
.	.	.	16ee'\	.	.
.	.	.	16ff#X'\	.	.
.	.	.	16gg#X'\	.	.
.	.	.	16aa'\	.	.
.	.	.	16bb'\	.	.
.	.	.	16ccc'\JJ)	.	.
=50	=50	=50	=50	=50	=50
!	!	!	!LO:TX:t=P:problem=mixed beam	!	!
2.D/ 2.DD/	2.a\ 2.f\ 2.c\	.	8ddd\L	.	.
.	.	.	(16d'/L	.	.
.	.	.	16e'/JJ	.	.
.	.	.	16f#X'/LL	.	.
.	.	.	16g'/	.	.
.	.	.	16a'/	.	.
.	.	.	16b'/JJ	.	.
.	.	.	16cc'/LL	.	.
.	.	.	16dd'/	.	.
.	.	.	16ee'/	.	.
.	.	.	16ff#X'/JJ)	.	.
=51	=51	=51	=51	=51	=51
*	*	*	*^	*	*
2.GG/ 2.GGG/	2.g\ 2.f\ 2.B\	.	8gg\L	4gg/	.	.
.	.	.	(16g'\L	.	.	.
.	.	.	16a'\JJ	.	.	.
.	.	.	16b'\LL	2ryy	.	.
.	.	.	16cc'\	.	.	.
.	.	.	16dd'\	.	.	.
.	.	.	16ee'\JJ	.	.	.
.	.	.	16ffn'\LL	.	.	.
.	.	.	16gg'\	.	.	.
.	.	.	16aa'\	.	.	.
.	.	.	16bb'\JJ)	.	.	.
*	*	*	*v	*v	*	*
=52	=52	=52	=52	=52	=52
2C/	8g\L 8e\ 8c'\	p	8ccc\	.	.
.	8g\J 8e'\	.	(8cc\L	.	.
!	!	!	!LO:TX:t=P:problem=główka nuty - romb (flażolet)	!	!
.	8g\L 8e'\	.	8cccc\J)	.	.
.	8g\J 8e'\	.	16cc\LL	.	.
.	.	.	16dd\JJ	.	.
4BB/	8g#X\L 8e'\	.	8.eett\L	.	.
.	8g#\J 8e'\	.	.	.	.
.	.	.	16dd#X\Jk	.	.
=53	=53	=53	=53	=53	=53
8C/L	8a\L 8e\	.	(16ee\LL	.	.
.	.	.	16aa\	.	.
8C#X/J	8a\J 8e\	.	16aa\	.	.
.	.	.	16gg\JJ)	.	.
4D/	4.a\ 4.d\	.	(4.ff\	.	.
4DD/	.	.	.	.	.
.	8cc\ 8f#X\ 8e-X\	.	8ff#X\)	.	.
!	!	!	!LO:LB:g=original	!	!
=54	=54	=54	=54	=54	=54
2.GG/	8b\L 8g\ 8d'\	.	8gg'\	.	.
.	8b\J 8d'\	.	(8g\L	.	.
!	!	!	!LO:TX:b:i:t=riten.	!	!
!	!	!	!LO:TX:t=P:problem=główka nuty - romb (flażolet)	!	!
.	8b\L 8d'\	.	8ggg\J)	.	.
.	8b\J 8d'\	.	16ffn\LL	.	.
.	.	.	16ee\JJ	.	.
.	8b\L 8d'\	.	8dd\L	.	.
.	8a\J 8e-\ 8c'\	.	8cc\J	.	.
=55	=55	=55	=55	=55	=55
.	.	.	(>32qqcc/	.	.
2.GGG/	(8.g\L 8.d\ 8.B\	.	16b\LL	.	.
.	.	.	16a\)	.	.
.	.	.	16b'\	.	.
.	16g\Jk 16en\ 16c\	.	16cc'\JJ	.	.
.	4.g\ 4.f\ 4.d\	.	4.dd\	.	.
.	8g\ 8d\ 8B\)	.	8g\	.	.
=56	=56	=56	=56	=56	=56
8.C/L	8.g\L 8.e\ 8.c'\	.	(16ee\LL	.	.
.	.	.	16gg\)	.	.
.	.	.	16ff#X'\	.	.
16AA/Jk	16f#X\Jk 16c\	.	16dd#X'\JJ	.	.
!LO:N:vis=2.	!	!	!	!	!
2GG/	8g\L 8B'\	.	4.ee\	.	.
.	8g\J 8B'\	.	.	.	.
.	8g\L 8B'\	.	.	.	.
.	8a\J 8c#X'\	.	8ee\	.	.
!LO:LB:g=original	!LO:LB:g=original	!	!	!	!
=57	=57	=57	=57	=57	=57
.	.	.	32qqee/	.	.
8FF/L	8a\L 8d\ 8A\	<	16dd\LL	.	.
.	.	.	16cc#X\	.	.
8AA/J	16a\L 16B\	.	16dd\	.	.
.	16c#X\JJ	.	16ee\JJ	.	.
4.DD/	4.a\ 4.f\ 4.d\	.	16ff\LL	.	.
.	.	.	16ee\	.	.
.	.	.	16ff\	.	.
.	.	[ >	16gg\JJ	.	.
.	.	.	(8aa^^\L	.	.
8EE/	8c#X\	]]	8a\J)	.	.
=58	=58	=58	=58	=58	=58
2FF/	4d\	.	(16a\LL	.	.
.	.	.	16ff\	.	.
.	.	.	16ff\	.	.
.	.	.	16a\JJ)	.	.
.	4a-X\ 4cn^^<\	.	4ff\	.	.
4GG/	8.g\L 8.B\	.	8.ee\L	.	.
.	16f\Jk	.	16dd\Jk	.	.
=59	=59	=59	=59	=59	=59
!	!LO:N:vis=2.	!	!	!	!
2.EE/ 2.CC/	2e\ 2c\	.	16cc\LL	.	.
.	.	.	16g\	.	.
.	.	.	16cc\	.	.
.	.	.	16ee\JJ	.	.
.	.	.	16gg\LL	.	.
.	.	.	16ccc\	.	.
.	.	.	16eee\	.	.
.	.	.	16ggg\JJ	.	.
.	8ryy	.	4cccc\	.	.
.	8gg\ 8g\	.	.	.	.
!	!	!	!LO:LB:g=original	!	!
=60	=60	=60	=60	=60	=60
!LO:TX:t=P:problem=mixed beam	!	!LO:DY:rj	!LO:TX:a:i:t=8	!	!
8CC/L 8AAAA/	8ccc\ 8cc\	ff	2r	.	.
8e\J 8G\ 8E\	8cc\L 8c\	.	.	.	.
8e\L 8G\ 8E\	8cccc\J 8ccc\	.	.	.	.
8e\J 8G\ 8E\	16cc\LL 16c\	.	.	.	.
.	16dd\JJ 16d\	.	.	.	.
!LO:TX:t=P:problem=mixed beam	!	!	!	!	!
8BB-X/L 8BBB-X/	8.ee\L 8.e\	.	4r	.	.
8e\J 8G\ 8E\	.	.	.	.	.
.	16dd#X\Jk 16d#X\	.	.	.	.
=61	=61	=61	=61	=61	=61
!LO:TX:t=P:problem=mixed beam	!	!	!	!	!
8AA/L 8AAA/	16ee\LL 16e\	.	2.r	.	.
.	16aa\JJ 16a\	.	.	.	.
8c#X\J 8A\ 8E\ 8C#X\	16aa\LL 16a\	.	.	.	.
.	16gg\JJ 16g\	.	.	.	.
8d\L 8A\ 8F\ 8D\	4.ff\ 4.f\	.	.	.	.
8AA\J 8AAA\	.	.	.	.	.
!LO:TX:t=P:problem=mixed beam	!	!	!	!	!
8AA-X/L 8AAA-X/	.	.	.	.	.
8d\J 8c#\ 8A-X\ 8F#X\ 8D\	8ff#X\ 8f#X\	.	.	.	.
=62	=62	=62	=62	=62	=62
!LO:TX:t=P:problem=mixed beam	!	!	!	!	!
8GG/L 8GGG/	8gg\ 8g\	.	2.r	.	.
8d\J 8B\ 8D\	8g\L 8G\	.	.	.	.
8d\L 8B\ 8G\ 8D\	8ggg\J 8gg\	.	.	.	.
8B\J 8G\ 8D\	16ff\LL 16fn\	.	.	.	.
.	16ee\JJ 16e\	.	.	.	.
8B\L 8G\ 8D\	8dd\L 8d\	.	.	.	.
8A\J 8G\ 8E-X\	8cc\J 8c\	.	.	.	.
!LO:LB:g=original	!LO:LB:g=original	!	!	!	!
=63	=63	=63	=63	=63	=63
!LO:TX:t=P:problem=mixed beam	!	!	!	!	!
8GG/L 8GGG/	16b/LL 16B/	.	2.r	.	.
.	16a/ 16A/	.	.	.	.
8d\J 8G\ 8F\ 8D\	16b/ 16B/	.	.	.	.
.	16cc/JJ 16c/	.	.	.	.
8B\L 8G\ 8F\ 8D\	4.dd/ 4.d/	.	.	.	.
8B\J 8G\ 8F\ 8D\	.	.	.	.	.
!LO:TX:t=P:problem=mixed beam	!	!	!	!	!
8GGG/L	.	.	.	.	.
8B\J 8G\ 8F\ 8D\	8g/ 8G/	.	.	.	.
=64	=64	=64	=64	=64	=64
!LO:TX:t=P:problem=mixed beam	!	!	!	!	!
8C/L 8CC/	16ee\LL 16e\	.	2.r	.	.
.	16gg\ 16g\	.	.	.	.
!LO:TX:t=P:problem=## wykreślone	!	!	!	!	!
8c\J 8A\	16ff\ 16f\	.	.	.	.
.	16dd#X\JJ 16d#X\	.	.	.	.
8c\L 8G\	4.ee\ 4.e\	.	.	.	.
8c\J 8G\	.	.	.	.	.
!LO:TX:t=P:problem=mixed beam	!	!	!	!	!
8AA/L 8AAA/	.	.	.	.	.
8c#X\J 8G\	8ee\ 8e\	.	.	.	.
=65	=65	=65	=65	=65	=65
!LO:TX:t=P:problem=mixed beam	!	!	!	!	!
8D/L 8DD/	16dd\LL 16d\	.	2.r	.	.
.	16cc#X\ 16c#X\	.	.	.	.
8A\J 8F\	16dd\ 16d\	.	.	.	.
.	16ee\JJ 16e\	.	.	.	.
!LO:TX:t=P:problem=mixed beam	!	!	!	!	!
8D/L 8DD/	16ff\LL 16f\	.	.	.	.
.	16ee\ 16e\	.	.	.	.
8d\J 8A\ 8F\	16ff\ 16f\	.	.	.	.
.	16gg\JJ 16g\	.	.	.	.
!LO:TX:t=P:problem=mixed beam	!	!	!	!	!
8E/L 8EE/	8aa\L 8a\	.	.	.	.
8c#X\J 8G\	8a\J 8A\	.	.	.	.
=66	=66	=66	=66	=66	=66
8F\L 8FF\	8.a\L 8.A\	.	2.r	.	.
8d\J 8F\	.	.	.	.	.
.	16ff\Jk 16f\	.	.	.	.
8d\L 8A\ 8F\	4ff\ 4f\	.	.	.	.
8d\J 8A\ 8F\	.	.	.	.	.
8GG\L	8ee\L 8e\	.	.	.	.
8B\J 8F\	8dd\J 8d\	.	.	.	.
=67	=67	=67	=67	=67	=67
2.C/ 2.CC/	8cc\L 8c\	.	2.r	.	.
.	16cc\L 16e\	.	.	.	.
.	16cc\JJ 16e\	.	.	.	.
.	8cc\L 8e\	.	.	.	.
.	8cc\J 8e\	.	.	.	.
.	8cc\L 8e\	.	.	.	.
.	8cc\J 8e\	.	.	.	.
=68	=68	=68	=68	=68	=68
!	!	!	!	!	!LO:DY:a
8C/L	8a\L 8e\	p	(16ee\LL	.	p
.	.	.	16aa\)	.	.
8C#X/J	8a\J 8e\	.	(16aa\	.	.
.	.	.	16gg\JJ)	.	.
!	!	!	!LO:TX:a:i:t=dolce	!	!
4D/	8a\L 8f\ 8d\	.	4.ff\	.	.
.	16a\L 16f\ 16d\	.	.	.	.
.	16a\JJ 16f\ 16d\	.	.	.	.
4DD/	8a\L 8f\ 8d\	.	.	.	.
.	8a\J 8f\ 8d\	.	8ff\	.	.
!LO:LB:g=original	!LO:LB:g=original	!	!	!	!
=69	=69	=69	=69	=69	=69
16D\LL 16GG\	8r	ff	2r	.	.
16G\JJ	.	.	.	.	.
16G\LL	8b\ 8g\ 8d\ 8B\	.	.	.	.
16F\JJ	.	.	.	.	.
8E\L 8C\	2cc\ 2g\ 2e\ 2c\	.	.	.	.
16GG\L	.	.	.	.	.
16GG\JJ	.	.	.	.	.
8C/L	.	.	4r	.	.
8CCC/J	.	.	.	.	.
=70	=70	=70	=70	=70	=70
8C\L	8a\L 8e\	p	(16ee\LL	.	.
.	.	.	16aa\JJ)	.	.
8C#X\J	8a\J 8e\	.	(16aa\LL	.	.
.	.	.	16gg\JJ)	.	.
4D\	8a\L 8f\ 8d\	.	4.ff\	.	.
.	16a\L 16f\ 16d\	.	.	.	.
.	16a\JJ 16f\ 16d\	.	.	.	.
4DD/	8a\L 8f\ 8d\	.	.	.	.
.	8a\J 8f\ 8d\	.	8ff\	.	.
=71	=71	=71	=71	=71	=71
16D\LL 16GG\	8r	ff	2r	.	.
16G\JJ	.	.	.	.	.
16G\LL	8b\ 8g\ 8d\ 8B\	.	.	.	.
16F\JJ	.	.	.	.	.
8E\L 8C\	2cc\ 2g\ 2e\ 2c\	.	.	.	.
16GG\L	.	.	.	.	.
16GG\JJ	.	.	.	.	.
!LO:TX:t=P:problem=mixed beam	!	!	!	!	!
8C\L	.	.	4r	.	.
8CCC/J	.	.	.	.	.
=72	=72	=72	=72	=72	=72
4GG#X/ 4GGG#X/	8e/L 8B/	<	(16b\LL	.	/
.	.	.	16ee\)	.	.
.	8e/J 8B/	.	(16ee\	.	<
.	.	.	16dd\JJ)	.	.
2AA/ 2AAA/	8e/L 8c/ 8A/	.	4.cc\	.	.
.	16e/L 16c/ 16A/	.	.	.	.
.	16e/JJ 16c/ 16A/	.	.	.	.
.	8e/L 8c/ 8A/	.	.	.	.
.	8e/J 8c/ 8A/	.	8cc\	.	.
=73	=73	=73	=73	=73	=73
4BB/ 4BBB/	8g/L 8d/ 8G/	.	(16dd\LL	.	.
.	.	.	16gg\)	.	.
.	8g/J 8d/ 8G/	.	(16gg\	.	.
.	.	.	16ff\JJ)	.	.
2C/ 2CC/	8g/L 8e/ 8c/ 8G/	.	4.ee\	.	.
.	16g/L 16e/ 16c/	.	.	.	.
.	16g/JJ 16e/ 16c/	.	.	.	[
.	8g/L 8e/ 8c/	.	.	.	.
.	8g/J 8e/ 8c/	[	8ee\	.	.
!	!	!	!LO:LB:g=original	!	!
=74	=74	=74	=74	=74	=74
2.BB/ 2.BBB/	4ee\ 4g\ 4e\	>	(16gg\LL	.	.
.	.	.	16ccc\)	.	.
.	.	.	(16ccc\	.	.
.	.	.	16bb\JJ)	.	.
.	4b\ 4g\ 4e\	.	(16ee\LL	.	.
.	.	.	16aa\)	.	.
.	.	.	(16aa\	.	.
.	.	.	16gg\JJ)	.	.
.	4g\ 4e\ 4B\	]]	(16b\LL	.	.
.	.	.	16ff#X\)	.	.
.	.	.	(16ff#\	.	.
.	.	.	16ee\JJ)	.	.
!LO:LB:g=original	!LO:LB:g=original	!	!	!	!
=75	=75	=75	=75	=75	=75
2BB/ 2BBB/	2f#X/ 2d#X/ 2B/ 2A/	.	16dd#X\LL	.	.
.	.	.	16b\	.	.
.	.	.	16dd#\	.	.
.	.	.	16ff#X\JJ	.	.
!	!	!	!LO:TX:t=P:problem=główka nuty - romb (flażolet)	!	!
.	.	.	8bbb\L	.	.
.	.	.	8dd#\J	.	.
4E/ 4EE/	4e/ 4B/ 4G/	.	4ee\	.	.
=76	=76	=76	=76	=76	=76
8C\L	8a\L 8e\ 8A\	p	(16ee\LL	.	.
.	.	.	16aa\JJ)	.	.
8C#X\J	8a\J 8e\	.	(16aa\LL	.	.
.	.	.	16gg\JJ)	.	.
4D\	8a\L 8f\ 8d\	.	4.ff\	.	.
.	16a\L 16f\ 16d\	.	.	.	.
.	16a\JJ 16f\ 16d\	.	.	.	.
4DD/	8a\L 8f\ 8d\	.	.	.	.
.	8a\J 8f\ 8d\	.	8ff\	.	.
=77	=77	=77	=77	=77	=77
16D\LL 16GG\	8r	ff	2r	.	.
16G\JJ	.	.	.	.	.
16G\LL	8b\ 8g\ 8d\ 8B\	.	.	.	.
16F\JJ	.	.	.	.	.
8E\L 8C\	2cc\ 2g\ 2e\ 2c\	.	.	.	.
16GG\L	.	.	.	.	.
16GG\JJ	.	.	.	.	.
8C/L	.	.	4r	.	.
8CCC/J	.	.	.	.	.
!	!	!	!LO:PB:g=original	!	!
=78	=78	=78	=78	=78	=78
2.C/ 2.CC/	8a\L 8e\	.	(16ee\LL	.	.
.	.	.	16aa\)	.	.
.	8a\J 8e\	<	(16aa\	.	.
.	.	.	16gg\JJ)	.	<
.	4a\ 4f#X\ 4d#X\	.	4ff#X\	.	.
.	8g\L 8e\	.	(16gg\LL	.	.
.	.	.	16ccc\)	.	.
.	8ee\J 8g\	[[	(16ccc\	.	.
.	.	.	16bb\JJ)	.	[[
=79	=79	=79	=79	=79	=79
2.D/ 2.DD/	8ee\L 8cc\	>	(16ee\LL	.	.
.	.	.	16aa\JJ)	.	>
.	8dd\J 8b\	.	(16aa\LL	.	.
.	.	.	16gg\JJ)	.	.
.	8cc\L 8a\	.	(16cc\LL	.	.
.	.	.	16ff#X\JJ)	.	.
.	8b\J 8g\	.	(16ff#\LL	.	.
.	.	.	16ee\JJ)	.	.
.	8a\L 8f#X\	.	(16a\LL	.	]
.	.	.	16dd\JJ)	.	.
.	8f#\J 8d\	]]	(16dd\LL	.	.
.	.	.	16cc\JJ)	.	.
=80	=80	=80	=80	=80	=80
!	!LO:TX:t=P:problem=e wykreślone	!	!	!	!LO:DY:a:t=mf.
8GG/L	8g/L 8B/	.	(16b\LL	.	mf
.	.	.	16ee\JJ)	.	.
8GG#X/J	8e/J 8B/	.	(16ee\LL	.	.
.	.	.	16dd\JJ)	.	.
4AA/	8e/L 8c/ 8A/	.	4.cc\	.	.
.	16e/L 16c/ 16A/	.	.	.	.
.	16e/JJ 16c/ 16A/	.	.	.	.
4AAA/	8e/L 8c/ 8A/	.	.	.	.
.	8e/J 8c/ 8A/	.	8cc\	.	.
!LO:LB:g=original	!LO:LB:g=original	!	!	!	!
=81	=81	=81	=81	=81	=81
16AA/LL 16DD/	8r	ff	2r	.	.
16D/JJ	.	.	.	.	.
16D/LL	8f#X/ 8d/ 8F#X/	.	.	.	.
16C/JJ	.	.	.	.	.
8BB/L 8GG/	2g/ 2d/ 2F#/	.	.	.	.
16DD/L	.	.	.	.	.
16DD/JJ	.	.	.	.	.
8GG/L	.	.	4r	.	.
8GGG/J	.	.	.	.	.
=82	=82	=82	=82	=82	=82
2.GG/ 2.GGG/	8e/L 8B/	.	(16b\LL	.	.
.	.	p	16ee\JJ)	.	<
.	8e/J 8B/	.	(16ee\LL	.	.
.	.	<	16dd\JJ)	.	.
.	4e/ 4c#X/ 4A#X/	.	4cc#X\	.	.
.	8d/L 8B/	.	(16dd\LL	.	.
.	.	.	16gg\JJ)	.	.
.	8b/J 8d/	[[	(16gg\LL	.	.
.	.	.	16ff#X\JJ)	.	[[
!	!	!	!LO:LB:g=original	!	!
=83	=83	=83	=83	=83	=83
2.AA/ 2.AAA/	8b\L 8g\	>	(16b\LL	.	.
.	.	.	16ee\JJ)	.	>
.	8a\J 8f#X\	.	(16ee\LL	.	.
.	.	.	16dd\JJ)	.	.
.	8g\L 8e\	.	(16g\LL	.	.
.	.	.	16cc#X\JJ)	.	.
.	8f#\J 8d\	.	(16cc#\LL	.	]
.	.	.	16b\JJ)	.	.
.	8e/L 8c#X/	]	(16e\LL	.	.
.	.	.	16a\JJ)	.	.
.	8c#/J 8A/	.	(16a\LL	.	.
.	.	.	16g\JJ)	.	.
=84	=84	=84	=84	=84	=84
!	!	!	!LO:TX:b:i:t=reste	!	!
!	!LO:TX:t=P:problem=mixed beam	!	!LO:TX:t=P:problem=mixed beam	!	!
2.D/ 2.DD/	8d/L 8F#X/	.	8f#X/L	.	.
.	8aa\J 8ff#X\	.	(16eee\L	.	>
.	.	.	16ddd\JJ)	.	.
.	8ff#\L 8dd\	>	(16ff#X\LL	.	.
.	.	.	16bb\JJ)	.	.
.	8ee\J 8cc#X\	.	(16bb\LL	.	.
.	.	.	16aa\JJ)	.	.
.	8dd\L 8b\	.	(16dd\LL	.	.
.	.	.	16gg\JJ)	.	]
.	8cc#\J 8a\	.	(16gg\LL	.	.
.	.	.	16ff#\JJ)	.	.
=85	=85	=85	=85	=85	=85
2.AA/ 2.AAA/	8b\L 8g\	.	(16b\LL	.	.
.	.	.	16ee\JJ)	.	.
.	8a\J 8f#X\	.	(16ee\LL	.	.
.	.	.	16dd\JJ)	.	.
.	8g/L 8e/	]	(16g\LL	.	.
.	.	.	16cc#X\JJ)	.	.
.	8f#/J 8d/	.	(16cc#\LL	.	.
.	.	.	16b\JJ)	.	.
.	8e/L 8c#X/	.	(16e\LL	.	.
.	.	.	16a\JJ)	.	.
.	8c#/J 8A/	.	(16a\LL	.	.
.	.	.	16g\JJ)	.	.
=86	=86	=86	=86	=86	=86
!	!	!	!LO:TX:b:i:t=rest	!	!
!	!	!	!LO:TX:t=P:problem=mixed beam	!	!
2.D/ 2.DD/	8d/L 8G#X/	.	8f#X/L	.	.
.	8aa\J 8ff#X\	>	(16eee\L	.	>
.	.	.	16ddd\JJ)	.	.
.	8ff#\L 8dd\	.	(16ff#X\LL	.	.
.	.	.	16bb\JJ)	.	.
.	8ee\J 8cc#X\	.	(16bb\LL	.	.
.	.	.	16aa\JJ)	.	.
.	8dd\L 8b\	.	(16dd\LL	.	.
.	.	.	16gg\JJ)	.	]
.	8cc#\J 8a\	.	(16gg\LL	.	.
.	.	.	16ff#\JJ)	.	.
!	!	!	!LO:LB:g=original	!	!
=87	=87	=87	=87	=87	=87
2.AA/ 2.AAA/	8b\L 8g\	.	(16b\LL	.	.
.	.	.	16ee\JJ)	.	.
.	8a\J 8f#X\	.	(16ee\LL	.	.
.	.	.	16dd\JJ)	.	.
.	8g\L 8e\	.	(16g\LL	.	.
.	.	.	16cc#X\JJ)	.	.
.	8f#\J 8d\	]	(16cc#\LL	.	.
.	.	.	16b\JJ)	.	.
.	8e/L 8c#X/	.	(16e\LL	.	.
.	.	.	16a\JJ)	.	.
.	8c#/J 8A/	.	(16a\LL	.	.
.	.	.	16g\JJ)	.	.
!LO:PB:g=original	!LO:PB:g=original	!	!	!	!
=88	=88	=88	=88	=88	=88
!	!LO:TX:b:i:t=ritenuto.	!	!	!	!
2D/ 2DD/	2d/ 2A/	.	8f#X\	.	.
.	.	.	(8e\L	.	.
!	!	!	!LO:TX:t=P:problem=główka nuty - romb (flażolet)	!	!
.	.	.	8ddd\J)	.	.
!	!	!	!LO:TX:a:i:t=rubato.	!	!
.	.	.	16ccn\LL	.	.
.	.	.	16b\JJ	.	.
4E-X/ 4EE-X/	4c/ 4A/	.	8a\L	.	.
.	.	.	8g\J	.	.
=89	=89	=89	=89	=89	=89
.	.	.	32qqg/	.	.
2D/ 2DD/	2d/ 2A/	.	16f#X\LL	.	.
.	.	.	16e\	.	.
.	.	.	16f#\	.	.
.	.	.	16g\JJ	.	.
.	.	.	4.a/	.	.
4C/ 4CC/	4e-X/ 4A/	.	.	.	.
.	.	.	8a/	.	.
=90	=90	=90	=90	=90	=90
2D/ 2DD/	2d/ 2A/	.	8f#X/	.	.
!	!	!	!LO:TX:t=P:problem=mixed beam	!	!
.	.	.	(8d/L	.	.
!	!	!	!LO:TX:t=P:problem=główka nuty - romb (flażolet)	!	!
.	.	.	8ddd\J)	.	.
.	.	.	16cc\LL	.	.
.	.	.	16b\JJ	.	.
4E-X/ 4EE-X/	4c/ 4A/	.	8a\L	.	.
.	.	.	8g'\J	.	.
=91	=91	=91	=91	=91	=91
.	.	.	32qqg/	.	.
2D/ 2DD/	2d/ 2A/	.	16f#X/LL	.	.
.	.	.	16e/	.	.
.	.	.	16f#/	.	.
.	.	.	16g/JJ	.	.
.	.	.	4.a/	.	.
4C/ 4CC/	4d#X/ 4A/	.	.	.	.
.	.	.	8a/	.	.
!	!	!	!LO:LB:g=original	!	!
=92	=92	=92	=92	=92	=92
!	!LO:TX:b:i:t=à tempo.	!	!	!	!LO:DY:a
2.BB/ 2.BBB/	8r	.	8b/	.	f
!	!	!	!LO:TX:t=P:problem=mixed beam	!	!
.	8d#X/ 8A/	.	(8B/L	.	.
!	!	!	!LO:TX:t=P:problem=główka nuty - romb (flażolet)	!	!
.	8d#/L 8A/	.	8bb\J)	.	.
!	!	!	!LO:TX:a:i:t=risoluto	!	!
.	8d#/ 8A/	.	16b\LL	.	.
.	.	.	16a\JJ	.	.
.	8d#/ 8B/	.	8g\L	.	.
.	8d#/J 8c/	.	8f#X\J	.	.
=93	=93	=93	=93	=93	=93
2.BB/ 2.BBB/	8B/L	.	(16e/LL	.	.
.	.	.	16g/)	.	.
.	8c/J	.	16f#X'/	.	.
.	.	.	16d#X'/JJ	.	.
.	8B/L	.	8e/L	.	.
.	8e/J 8B/	.	16b/L	.	.
.	.	.	16a/JJ	.	.
.	8e/L 8B/	.	8g/L	.	.
.	8d#X/J 8c/	.	8f#/J	.	.
=94	=94	=94	=94	=94	=94
2.BB/ 2.BBB/	8B/L	<	(16e/LL	.	.
.	.	.	16g/)	.	.
.	8c/J	.	16f#X'/	.	.
.	.	.	16d#X'/JJ	.	.
!	!	!	!LO:TX:t=P:problem=mixed beam	!	!
.	8B/L	.	8e/L	.	.
.	8g/J 8e/	.	16ee\L	.	.
.	.	.	16dd\JJ	.	.
.	8g/L 8e/	.	8cc#X\L	.	.
.	8g/J 8e/	[[	8b\J	.	.
!LO:LB:g=original	!LO:LB:g=original	!	!	!	!
=95	=95	=95	=95	=95	=95
2.BB/ 2.BBB/	4g\ 4e\	<	(16a#X\LL	.	.
.	.	.	16dd\)	.	.
.	.	.	16cc#X'\	.	.
.	.	.	16a#'\JJ	.	.
.	4a#X\ 4g\	.	(16cc#\LL	.	.
.	.	.	16ff#X\)	.	.
.	.	.	16ee'\	.	.
.	.	.	16cc#'\JJ	.	.
.	4cc#X\ 4a#\	.	(16ee\LL	.	.
.	.	.	16aan\)	.	.
.	.	.	16gg'\	.	.
.	.	.	16ee'\JJ	.	.
=96	=96	=96	=96	=96	=96
2.BB/	2.ee\ 2.cc#X\	.	16aa#X'\LL	.	.
.	.	.	16gg'\	.	.
.	.	.	16ccc#X'\	.	.
.	.	.	16aa#'\JJ	.	.
.	.	.	16eee'\LL	.	.
.	.	[	16ccc#'\	.	.
.	.	.	16ggg'\	.	.
!	!	!	!LO:TX:a:i:t=e	!	!
.	.	.	16eee'\JJ	.	.
.	.	.	8eeee\L	.	.
.	.	.	8aa#\J	.	.
!	!	!	!LO:LB:g=original	!	!
=97	=97	=97	=97	=97	=97
!	!	!	!LO:TX:a:i:t=♮	!	!
8BB\L	8dd#X\ 8b\	p	2.bbtt\	.	.
8d#X\J 8A\	(8b\L	.	.	.	.
8d#\L 8A\	8bbb\J)	.	.	.	.
8d#\J 8A\	16b\LL	.	.	.	.
.	16a\JJ	.	.	.	.
8d#\L 8B\	8g\L	.	.	.	.
8d#\J 8c\	8f#X\J	.	.	.	.
=98	=98	=98	=98	=98	=98
!LO:TX:t=P:problem=mixed beam	!	!	!	!	!
8BBB/L	8e/	.	2.bbttt\	.	.
!	!LO:TX:t=P:problem=mixed beam	!	!	!	!
8e\J 8G\	8B/L	.	.	.	.
8e\L 8G\	8bb\J	.	.	.	.
8e\J 8G\	16a/LL	.	.	.	.
.	16g/JJ	.	.	.	.
8B\L 8A\	8f#X/L	.	.	.	.
8B\J 8G\	8e/J	.	.	.	.
.	.	.	32qqaa#X\LLL	.	.
.	.	.	32qqbb\JJJ	.	.
=99	=99	=99	=99	=99	=99
.	32qqe/	.	.	.	.
4BBB/	16d#X/LL	.	8bbb\	.	.
.	16c#X/	.	.	.	.
!	!LO:TX:b:t=rallent.:dur=5qe:ext=ut:problem=text with extention lines	!	!	!	!
.	16d#/	.	8r	.	.
.	16e/JJ	.	.	.	.
2c\ 2E\	4f#X/	.	4r	.	.
.	32qqg/	.	.	.	.
.	16f#/LL	.	4r	.	.
.	16e/	.	.	.	.
.	16f#/	.	.	.	.
.	16g/JJ	.	.	.	.
=100	=100	=100	=100	=100	=100
8A\L 8C\	4a\ 4e\	.	2r	.	.
8GG\J	.	.	.	.	.
8F#X\L 8C#X\	4a#X\ 4e\	.	.	.	.
8E\J	.	.	.	.	.
!LO:TX:t=P:problem=mixed beam	!	!	!	!	!
8F#\L 8BB\	4b\ 4d#X\	.	4r	.	.
8BBB/J	.	.	.	.	.
=101||	=101||	=101||	=101||	=101||	=101||
*k[f#]	*k[f#]	*	*k[f#]	*	*
!	!	!LO:DY:rj	!	!	!
8E\L	8g/L 8B/	p	(16ee\LL	.	.
.	.	.	16gg`\)	.	.
8E\J	8a/J 8c/	.	16ff#\	.	.
.	.	.	16dd#X\JJ	.	.
!	!	!	!LO:TX:a:i:t=molto espressivo.	!	!
4E\	8g/ 8B/	.	8ee\L	.	.
.	8r	.	8ee\J 8b\ 8e\	.	.
4EE/	4r	.	8ee\L 8b\ 8g\	.	.
.	.	.	8ee\J 8b\ 8e\	.	.
!LO:LB:g=original	!LO:LB:g=original	!	!	!	!
=102	=102	=102	=102	=102	=102
8GG/L	8b\L 8B\	.	16ee\LL	.	.
.	.	.	16dd#X\	.	.
8BB/J	16b\L 16c#X\	.	16ee\	.	.
.	16d#X\JJ	.	16ff#\JJ	.	.
4.EE/	8b\L 8e\	.	16gg\LL	.	.
.	.	.	16ff#\	.	.
.	8b\J 8e\	.	16gg\	.	.
.	.	.	16aa\JJ	.	.
.	8b\L 8e\	.	(8bb^^\L	.	.
8FF#/	8d#\J	.	8b\J)	.	.
!	!	!	!LO:LB:g=original	!	!
=103	=103	=103	=103	=103	=103
4GG/	4e\	<	((16b\LL	.	.
.	.	.	16gg\)	.	.
.	.	.	(16gg\	.	.
.	.	.	16b\JJ))	.	.
4BB/	4a#X\ 4c#X\	[	(4gg\	.	.
4BBB/	4an\ 4cn\	>]	8.ff#\L	.	.
.	.	.	16ee\Jk)	.	.
=104	=104	=104	=104	=104	=104
2.EE/	8g#X\ 8B\	.	8ee/L	.	.
.	8r	.	(16e'/L	.	.
.	.	.	16f#X'/JJ	.	.
.	2r	.	16g#X'/LL	.	.
.	.	.	16a'/	.	.
.	.	.	16b'/	.	.
.	.	.	16cc'/JJ	.	.
.	.	.	16dd'/LL	.	.
.	.	.	16ee'/	.	.
.	.	.	16ff#'/	.	.
.	.	.	16gg#X'/JJ)	.	.
=105	=105	=105	=105	=105	=105
8AA/L	8cc\L 8e\	.	(16aa\LL	.	.
.	.	p	16ccc`\)	.	.
8AA/J	8dd\J 8fn\	.	16bb\	.	.
.	.	.	16gg#X\JJ	.	.
!	!	!	!LO:TX:t=P:problem=mixed beam	!	!
4AA/	8cc\ 8e\	.	8aa\L	.	.
.	8r	.	8a/J 8e/ 8A/	.	.
4AAA/	4r	.	8a/L 8e/ 8c/	.	.
.	.	.	8a/J 8e/ 8A/	.	.
=106	=106	=106	=106	=106	=106
8C/L	8ee\L 8e\	.	16aa\LL	.	.
.	.	.	16gg#X\	.	.
8E/J	16dd\L 16f#\	.	16aa\	.	.
.	16g#X\JJ	.	16bb\JJ	.	.
4.AA/	8ee\L 8a\	.	16ccc\LL	.	.
.	.	.	16bb\	.	.
.	8ee\J 8a\	.	16ccc\	.	.
.	.	.	16ddd\JJ	.	.
.	8ee\L 8a\	.	(8eee^^\L	.	.
8BB/	8g#X\J	.	8ee\J)	.	.
=107	=107	=107	=107	=107	=107
4C/	4a\	<	((16ee\LL	.	.
.	.	.	16ccc\)	.	.
.	.	.	(16ccc\	.	.
.	.	.	16ee\JJ))	.	.
4E/	4dd#X\ 4f#X\	[	(4ccc\	.	.
4EE/	4ddn\ 4fn\	>]	8.bb\L	.	.
.	.	.	16aa\Jk)	.	.
!	!	!	!LO:LB:g=original	!	!
=108	=108	=108	=108	=108	=108
2.AA/	8cc\ 8e\	.	8aa\L	.	.
.	8r	.	(16a'\L	.	.
.	.	.	16b'\JJ	.	.
.	2r	.	16cc'\LL	.	.
.	.	.	16dd'\	.	.
.	.	.	16ee'\	.	.
.	.	.	16ff#'\JJ	.	.
.	.	.	16gg#X'\LL	.	.
.	.	.	16aa'\	.	.
.	.	.	16bb'\	.	.
.	.	.	16ccc'\JJ)	.	.
!LO:LB:g=original	!LO:LB:g=original	!	!	!	!
=109	=109	=109	=109	=109	=109
!	!LO:TX:b:i:t=espr.	!	!	!	!
4FF#/	4cc\ 4e\	.	((16ee\LL	.	p
.	.	.	16ccc\)	.	.
.	.	.	(16ccc\	.	.
!	!	!	!LO:TX:b:i:t=espress.	!	!
.	.	.	16ee\JJ))	.	.
8BB/L	4cc\ 4d#X\	.	(4dd#X\	.	.
8AA/J	.	.	.	.	.
4GG/	4b\ 4e\	.	8.ee\L	.	.
.	.	.	16ee\Jk)	.	.
=110	=110	=110	=110	=110	=110
4FF#/	4cc\ 4e\	.	((16ee\LL	.	.
.	.	.	16ccc\)	.	.
.	.	.	(16ccc\	.	.
.	.	.	16ee\JJ))	.	.
8BB/L	4cc\ 4d#X\	.	(4dd#X\	.	.
8AA/J	.	.	.	.	.
4GG/	4b\ 4e\	.	8.ee\L	.	.
.	.	.	16ee\Jk)	.	.
=111	=111	=111	=111	=111	=111
2.AA/	2cc\ 2e\	<	16ee\LL	.	.
.	.	.	16dd#X\	.	.
.	.	.	16ee\	.	.
.	.	.	16ff#\JJ	.	.
.	.	.	16gg\LL	.	.
.	.	.	16ff#\	.	.
.	.	.	16gg\	.	.
.	.	.	16aa\JJ	.	.
.	4b\ 4d#X\	[	(8bb^^\L	.	.
.	.	.	8dd#\J)	.	.
=112	=112	=112	=112	=112	=112
2.GG/	2.b\ 2.e\	.	8ee\L	.	.
!	!	!	!	!	!LO:DY:a
.	.	.	8ee\J 8b\ 8e\	.	f
.	.	.	8ee\L 8b\ 8f#\	.	.
.	.	.	8ee\J 8b\ 8g\	.	.
.	.	.	8ee\L 8b\ 8f#\	.	.
.	.	.	8ee\J 8b\ 8e\	.	.
!	!	!	!LO:LB:g=original	!	!
=113	=113	=113	=113	=113	=113
4FF#/	4cc\ 4e\	.	((16ee\LL	.	.
.	.	.	16ccc\)	.	.
.	.	.	(16ccc\	.	.
.	.	.	16ee\JJ))	.	.
8BB/L	4cc\ 4d#X\	.	(4dd#X\	.	.
8AA/J	.	.	.	.	.
4GG/	4b\ 4e\	.	8.ee\L	.	.
.	.	.	16ee\Jk)	.	.
=114	=114	=114	=114	=114	=114
2.C/ 2.CC/	2.cc\ 2.e\	<	(16ee\LL	.	.
.	.	.	16gg\)	.	.
.	.	.	16ff#'\	.	.
.	.	.	16dd#X'\JJ	.	.
.	.	.	8ee\L	.	.
.	.	.	8ee\J 8cc\ 8e\	.	.
.	.	.	8ee\L 8cc\ 8g\	.	.
.	.	.	8ee\J 8cc\ 8e\	.	.
=115	=115	=115	=115	=115	=115
2.BB/ 2.BBB/	2b\ 2e\	.	16ee\LL	.	.
!	!	!	!LO:TX:b:t=cresc.:ext=ut:problem=dynamics with extention lines	!	!LO:HP:t=cresc.
.	.	.	16dd#X\	.	<
.	.	.	16ee\	.	.
.	.	.	16ff#\JJ	.	.
.	.	.	16gg\LL	.	.
.	.	.	16ff#\	.	.
.	.	.	16gg\	.	.
.	.	.	16aa\JJ	.	.
.	4b\ 4d#X\	.	(8bb^^\L	.	.
.	.	.	8dd#\J)	.	.
=116	=116	=116	=116	=116	=116
2.AA#X/ 2.AAA#X/	2.cc#X\ 2.e\	.	(16ee\LL	.	.
.	.	.	16gg\)	.	.
.	.	.	16ff#'\	.	.
.	.	.	16dd#X'\JJ	.	.
.	.	.	8ee\L	.	.
.	.	.	8ee\J 8cc#X\ 8e\	.	.
.	.	.	8ee\L 8cc#\ 8g\	.	.
.	.	[	8ee\J 8cc#\ 8e\	.	.
=117	=117	=117	=117	=117	=117
2.BB/ 2.BBB/	4cc\ 4e\	<	(16ee\LL	.	.
.	.	.	16dd#X\)	.	.
.	.	.	16ee'\	.	.
.	.	.	16ff#'\JJ	.	.
.	4b\ 4g\	.	16gg'\LL	.	.
.	.	.	16dd#'\	.	.
.	.	.	16ee'\	.	.
.	.	.	16ff#'\JJ	.	.
.	4ee\ 4b\	[[	16gg'\LL	.	[
.	.	.	16ff#'\	.	.
.	.	.	16gg'\	.	.
.	.	.	16aa'\JJ	.	.
!LO:LB:g=original	!LO:LB:g=original	!	!LO:LB:g=original	!	!
=118	=118	=118	=118	=118	=118
2.BB/ 2.BBB/	4ee\ 4b\	<	16bb'\LL	.	<
.	.	.	16ff#'\	.	.
.	.	.	16gg'\	.	.
.	.	.	16aa'\JJ	1	.
.	4bb\ 4ee\	.	16bb'\LL	.	.
.	.	.	16ddd#X'\	.	.
.	.	.	16eee'\	2	.
.	.	.	16fff#'\JJ	.	.
.	4bb\ 4gg\	.	16ggg'\LL	.	.
.	.	.	16ddd#'\	.	.
.	.	.	16eee'\	.	.
.	.	[[	16fff#'\JJ	.	[[
=119	=119	=119	=119	=119	=119
2.BB/ 2.BBB/	4ccc#X\ 4gg\	>	(16ggg\LL	.	>
.	.	.	16eee\)	.	.
.	.	.	16ccc#X'\	.	.
.	.	.	16aa#X'\JJ	.	.
.	4cc#X\ 4g\	.	16gg'\LL	.	.
.	.	.	16ee'\	.	.
.	.	.	16cc#X'\	.	]
.	.	.	16a#X'\JJ	.	.
.	4c#X/ 4G'/	]	16g/LL	.	.
.	.	.	16e/	.	.
.	.	.	16c#X/	.	.
.	.	.	16A#X/JJ	.	.
=120	=120	=120	=120	=120	=120
*	*	*	*^	*	*
*	*	*	*Xtuplet	*	*	*
!	!	!	!LO:TX:t=P:problem=takt niemiarowo zapisany	!	!	!
!	!	!	!LO:TX:i:a:t=presto possibile	!	!	!
2.BB/ 2.BBB/	8B/ 8F#/	.	(42B\LLLL	4B/	.	.
.	.	.	42c#X\	.	.	.
.	.	.	42d#X\	.	.	.
.	.	.	42e\	.	.	.
.	.	.	42f#\	.	.	.
.	.	.	42g\	.	.	.
.	8r	.	.	.	.	.
.	.	.	42a\	.	.	.
.	.	.	42b\	.	.	.
.	.	.	42cc#X\	.	.	.
.	.	.	42dd#X\	.	.	.
.	.	.	42ee\	.	.	.
.	4r;	.	.	2ryy	.	.
.	.	.	42ff#\	.	.	.
.	.	.	42gg\	.	.	.
.	.	.	42aa\	.	.	.
.	.	.	42bb\	.	.	.
.	.	.	42ccc#X\	.	.	.
.	.	.	42ddd#X\	.	.	.
.	.	.	42eee\	.	.	.
.	.	.	42fff#\	.	.	.
.	.	.	42ggg\	.	.	.
.	.	.	42aaa\JJJJ	.	.	.
.	8r	.	8bbb\L)	.	.	.
.	8b\ 8d#X\	.	8dd#\J	.	.	.
*	*	*	*v	*v	*	*
!	!	!	!LO:LB:g=original	!	!
=121	=121	=121	=121	=121	=121
8E\L	8g\L 8B\	.	(16ee\LL	.	.
.	.	.	16gg`\)	.	.
8E\J	8a\J 8c\	.	16ff#'\	.	.
.	.	.	16dd#X'\JJ	.	.
4E\	8g\ 8B\	.	8ee\L	.	.
.	8r	p	8ee\J 8b\ 8e\	.	.
4EE/	4r	.	8ee\L 8b\ 8g\	.	.
.	.	.	8ee\J 8b\ 8e\	.	.
=122	=122	=122	=122	=122	=122
8GG/L	8b\L 8B\	.	16ee\LL	.	.
.	.	.	16dd#X\	.	.
8BB/J	16b\L 16c#X\	.	16ee\	.	.
.	16d#X\JJ	.	16ff#\JJ	.	.
4.EE/	8b\L 8e\	.	16gg\LL	.	.
.	.	.	16ff#\	.	.
.	8b\J 8e\	.	16gg\	.	.
.	.	.	16aa\JJ	.	.
.	8b\L 8e\	.	(8bb^^\L	.	.
8FF#/	8e\J	.	8b\J)	.	.
=123	=123	=123	=123	=123	=123
4GG/	4e\	<	((16b\LL	.	.
.	.	.	16gg\)	.	.
.	.	.	(16gg\	.	.
.	.	.	16b\JJ))	.	.
4BB/	4a#X\ 4c#X\	[	(4gg\	.	.
.	.	>	.	.	.
4BBB/	4an\ 4cn\	.	8.ff#\L	.	.
.	.	]	16ee\Jk)	.	.
=124	=124	=124	=124	=124	=124
2.EE/	8g\ 8B\	.	8ee\L	.	.
.	8r	.	(16e'\L	.	.
.	.	.	16f#'\JJ	.	.
.	2r	.	16g'\LL	.	.
.	.	.	16a'\	.	.
.	.	.	16b'\	.	.
.	.	.	16cc#X'\JJ	.	.
.	.	.	16dd#X'\LL	.	.
.	.	.	16ee'\	.	.
.	.	.	16ff#'\	.	.
.	.	.	16gg'\JJ)	.	.
!LO:LB:g=original	!LO:LB:g=original	!	!	!	!
=125	=125	=125	=125	=125	=125
!	!	!LO:DY:t=p.p.	!	!	!
8GG/L	8b\L 8d\	pp	(16gg\LL	.	.
.	.	.	16bb'\)	.	.
8GG/J	8cc\J 8e-\	.	16aa'\	.	.
.	.	.	16ff#'\JJ	.	.
!	!	!	!LO:TX:t=P:problem=mixed beam	!	!
4GG/	8b\ 8d\	.	8gg\L	.	.
.	8r	.	8b/J 8d/ 8G/	.	.
4GGG/	4r	.	8b/L 8d/ 8B/	.	.
.	.	.	8b/J 8d/ 8G/	.	.
!	!	!	!LO:PB:g=original	!	!
=126	=126	=126	=126	=126	=126
8BB/L	8dd\L 8d\	.	16gg\LL	.	.
.	.	.	16ff#\	.	.
8D/J	16dd\L 16e\	.	16gg\	.	.
.	16f#\JJ	.	16aa\JJ	.	.
4.GG/	8dd\L 8g\	.	16bb\LL	.	.
.	.	.	16aa\	.	.
.	8dd\J 8g\	.	16bb\	.	.
.	.	.	16ccc\JJ	.	.
.	8dd\L 8g\	.	(8ddd^^\L	.	.
8AA/	8f#\J	.	8dd\J)	.	.
=127	=127	=127	=127	=127	=127
4BB/	4g\	.	((16dd\LL	.	.
.	.	.	16bb\)	.	.
.	.	.	(16bb\	.	.
.	.	.	16dd\JJ))	.	.
4D/	4cc#X\ 4e\	.	(4bb\	.	.
4DD/	4ccn\ 4e-X\	.	8.aa\L	.	.
.	.	.	16gg\Jk)	.	.
=128	=128	=128	=128	=128	=128
!LO:TX:t=P:problem=mixed beam	!	!	!	!	!
8GG/L	16b\LL 16d\	.	8gg\	.	.
.	16ee\JJ	mf	.	.	.
16d\L 16B\	16ee\LL	.	8r	.	.
16d\JJ 16B\	16dd\JJ	.	.	.	.
8d\L 8B\	2b\	.	4r	.	.
8d\J 8B\	.	.	.	.	.
8d\L 8B\	.	.	4r	.	.
8d\J 8B\	.	.	.	.	.
=129	=129	=129	=129	=129	=129
2GG/	8d/L 8B/	.	8gg\	.	.
.	8d/J 8B/	.	(8g\L	.	.
!	!	!	!LO:TX:t=P:problem=główka nuty - romb (flażolet)	!	!
.	8d/L 8B/	.	8ggg\J)	.	.
.	8d/J 8B/	.	16gg\LL	.	.
.	.	.	16aa\JJ	.	.
4FF#/	8d#X/L 8B/	.	8.bbtt\L	.	.
.	8b/J 8d#/	.	.	.	.
.	.	.	16aa#X\Jk	.	.
=130	=130	=130	=130	=130	=130
!LO:TX:t=P:problem=mixed beam	!	!	!	!	!
8GG\L	16b\LL 16dn\	.	8bb\	.	.
.	16ee\JJ	mf	.	.	.
16d\L 16B\	16ee\LL	.	8r	.	.
16d\JJ 16B\	16dd\JJ	.	.	.	.
8d\L 8B\	2b\	.	4r	.	.
8d\J 8B\	.	.	.	.	.
8d\L 8B\	.	.	4r	.	.
8d\J 8B\	.	.	.	.	.
=131	=131	=131	=131	=131	=131
2FFn/	8d/L 8B/	.	8gg\	.	.
.	8d/J 8B/	.	(8g\L	.	.
!	!	!	!LO:TX:t=P:problem=główka nuty - romb (flażolet)	!	!
.	8d/L 8B/	.	8ggg\J)	.	.
.	8d/J 8B/	.	16gg\LL	.	.
.	.	.	16aa\JJ	.	.
4FF/	8d/L 8B/	.	8.bbtt\L	.	.
.	8b/J 8d/	.	.	.	.
.	.	.	16aa#X\Jk	.	.
!LO:LB:g=original	!LO:LB:g=original	!	!LO:LB:g=original	!	!
=132	=132	=132	=132	=132	=132
8EE\L	16b\LL 16e\	<	8bb\	.	.
.	16ee\JJ	.	.	.	.
16B\L 16G#X\	16ee\LL	.	8r	.	.
16B\JJ 16G#\	16dd\JJ	.	.	.	.
8B\L 8G#\	4.b\ 4.e\	.	4r	.	.
8B\J 8G#\	.	.	.	.	.
8B\L 8G#\	.	.	4r	.	.
8B\J 8G#\	8b\ 8e\	.	.	.	.
=133	=133	=133	=133	=133	=133
!	!	!	!LO:TX:a:t=2	!	!
8EE\L	16cc\LL 16e\	.	2r	.	.
.	16ffn\JJ	.	.	.	.
16c\L 16A\	16ff\LL	.	.	.	.
16c\JJ 16A\	16ee\JJ	.	.	.	.
8c\L 8A\	4.cc\ 4.e\	.	.	.	.
8c\J 8A\	.	.	.	.	.
8c\L 8A\	.	.	4r	.	.
8c#X\J 8B-X\	8cc#X\ 8e\	.	.	.	.
=134	=134	=134	=134	=134	=134
!LO:TX:t=P:problem=mixed beam	!	!	!	!	!
8EE/L	16dd\LL 16fn\	.	2.r	.	.
.	16gg\JJ	.	.	.	.
16d\L 16Bn\	16gg\LL	.	.	.	.
16d\JJ 16B\	16ffn\JJ	.	.	.	.
8d\L 8B\	4.dd\ 4.f\	.	.	.	.
8d\J 8B\	.	.	.	.	.
8d\L 8B\	.	.	.	.	.
8e-X\J 8c\	8ee-X\ 8f#X\	[[	.	.	.
=135	=135	=135	=135	=135	=135
!	!	!	!LO:TX:a:i:t=con eleganza.	!	!
4en\ 4c\ 4G\	4een\ 4g\	>	(16ee\LL	.	.
!	!	!	!LO:TX:b:t=2	!	!
.	.	.	16aa\)	.	.
.	.	.	(16aa\	.	.
.	.	.	16gg\JJ)	.	.
4GG/	4g\ 4c\	.	(16cc\LL	.	.
.	.	.	16ffn\)	.	.
.	.	.	(16ff\	.	.
.	.	.	16ee\JJ)	.	.
4r	4e-\ 4c\	]]	(16a\LL	.	.
.	.	.	16dd\)	.	.
.	.	.	(16dd\	.	.
.	.	.	16cc\JJ)	.	.
=136	=136	=136	=136	=136	=136
2.GG/ 2.GGG/	4en\ 4c\	<	(16g\LL	.	.
.	.	.	16ee\)	.	.
.	.	.	(16ee\	.	.
.	.	.	16g\JJ)	.	.
.	4g\ 4c\	.	(16ee\LL	.	.
.	.	.	16gg\)	.	.
.	.	.	(16gg\	.	.
.	.	.	16ee\JJ)	.	.
.	4a\ 4c\	[[	(16dd#X\LL	.	.
.	.	.	16ff#X\)	.	.
.	.	.	(16ff#\	.	.
.	.	.	16dd#\JJ)	.	.
=137	=137	=137	=137	=137	=137
4e\ 4c\ 4G\	4g\	>	(16ee\LL	.	.
.	.	.	16aa\)	.	.
.	.	.	(16aa\	.	.
.	.	.	16gg\JJ)	.	.
4GG/	4g\ 4c\	.	(16cc\LL	.	.
.	.	.	16ffn\)	.	.
.	.	.	(16ff\	.	.
.	.	.	16ee\JJ)	.	.
4r	4e-X\ 4c\	]]	(16a\LL	.	.
.	.	.	16dd\)	.	.
.	.	.	(16dd\	.	.
.	.	.	16cc\JJ)	.	.
!	!	!	!LO:LB:g=original	!	!
=138	=138	=138	=138	=138	=138
2.GG/ 2.GGG/	4en\ 4c\	<	(16g\LL	.	.
.	.	.	16ee\)	.	.
.	.	.	(16ee\	.	.
.	.	.	16g\JJ)	.	.
.	4g\ 4c\	.	(16ee\LL	.	.
.	.	.	16gg\)	.	.
.	.	.	(16gg\	.	.
.	.	.	16ee\JJ)	.	.
.	4e\ 4c\	[[	(16g\LL	.	.
.	.	.	16ee\)	.	.
.	.	.	(16ee\	.	.
.	.	.	16g\JJ)	.	.
!LO:PB:g=original	!LO:PB:g=original	!	!	!	!
=139	=139	=139	=139	=139	=139
2.GG/ 2.GGG/	2.G</	<	(16g\LL 16c\	.	.
.	.	.	16ee\ 16g\)	.	.
.	.	.	(16ee\ 16g\	.	.
.	.	.	16g\JJ 16c\)	.	.
.	.	.	(16a\LL 16c#X\	.	.
.	.	.	16ee\ 16a\)	.	.
.	.	.	(16ee\ 16a\	.	.
.	.	.	16a\JJ 16c#\)	.	.
.	.	.	(16a\LL 16d\	.	.
.	.	.	16ffn\ 16a\)	.	.
.	.	.	(16ff\ 16a\	.	.
.	.	.	16a\JJ 16d\)	.	.
=140	=140	=140	=140	=140	=140
!	!	!	!LO:TX:t=cresc.:ext=ut:problem=dynamics with extention lines	!	!LO:HP:a:t=cresc.
2.GG/ 2.GGG/	2.G</	.	(16a\LL 16d\	.	<
.	.	.	16ffn\ 16a\)	.	.
.	.	.	(16ff\ 16a\	.	.
.	.	.	16a\JJ 16d\)	.	.
.	.	.	(16b\LL 16d#X\	.	.
.	.	.	16ff#X\ 16b\)	.	.
.	.	.	(16ff#\ 16b\	.	.
.	.	.	16b\JJ 16d#\)	.	.
.	.	.	(16b\LL 16e\	.	.
.	.	.	16gg\ 16b\)	.	.
.	.	.	(16gg\ 16b\	.	.
.	.	.	16b\JJ 16e\)	.	.
=141	=141	=141	=141	=141	=141
2.GG/ 2.GGG/	2.G</	.	(16cc\LL 16e\	.	.
.	.	.	16gg\ 16cc\)	.	.
.	.	.	(16gg\ 16cc\	.	.
.	.	.	16cc\JJ 16e\)	.	.
.	.	.	(16cc\LL 16fn\	.	.
.	.	.	16aa\ 16cc\)	.	.
.	.	.	(16aa\ 16cc\	.	.
.	.	.	16cc\JJ 16f\)	.	.
.	.	.	(16dd\LL 16f#X\	.	.
.	.	.	16aa\ 16dd\)	.	.
.	.	.	(16aa\ 16dd\	.	.
.	.	.	16dd\JJ 16f#\)	.	.
=142	=142	=142	=142	=142	=142
2.GG/ 2.GGG/	2.G</	.	(16dd\LL 16g\	.	.
.	.	.	16bb\ 16dd\)	.	.
.	.	.	(16bb\ 16dd\	.	.
.	.	.	16dd\JJ 16g\)	.	.
.	.	.	(16dd\LL 16g\	.	.
.	.	.	16ddd\ 16dd\)	.	.
.	.	[	(16ddd\ 16dd\	.	.
.	.	.	16dd\JJ 16g\)	.	.
.	.	.	(16dd\LL 16g\	.	.
.	.	.	16ddd\ 16dd\)	.	.
.	.	.	(16ddd\ 16dd\	.	.
.	.	.	16dd\JJ 16g\)	.	[[
=143	=143	=143	=143	=143	=143
2GG/ 2GGG;/	2fn/ 2B;/	.	16ddd\ 16dd\ 16g\	.	.
!	!	!	!LO:TX:a:t=Cadenza	!	!LO:DY:a
.	.	.	2G;</	.	ff
!	!LO:TX:a:t=Cadenza	!	!	!	!
4r	4r	.	.	.	.
*	*	*	*head:rhombus	*	*
!	!	!	!LO:TX:t=P:problem=9 nut pustych w środku	!	!
!	!	!	!LO:TX:t=P:problem=nuty dopisane  (chwyty)	!	!
.	.	.	16bb'o\LL	.	.
.	.	.	16gg'o\	.	.
.	.	.	16dd'o\	.	.
2ryy	2ryy	.	16bb'o\JJ	.	.
.	.	.	16dd'o\LL	.	.
.	.	.	16gg'o\	.	.
.	.	.	16bb'o\	.	.
.	.	.	16ddd'\JJ	.	.
.	.	.	4ggg\	.	.
=-	=-	=-	=-	=-	=-
16ryy	16ryy	.	.	.	.
*	*	*	*head:normal	*	*
16%21ryy	16%21ryy	.	16ddd\ 16dd\ 16g\	.	.
.	.	.	2G;;/	.	.
*	*	*	*head:rhombus	*	*
!	!	!	!LO:TX:t=P:problem=9 nut pustych w środku	!	!
!	!	!	!LO:TX:t=P:problem=nuty dopisane  (chwyty)	!	!
.	.	.	16bb'o\LL	.	.
.	.	.	16gg'o\	.	.
.	.	.	16dd'o\	.	.
.	.	.	16bb'o\JJ	.	.
.	.	.	16dd'o\LL	.	.
.	.	.	16gg'o\	.	.
.	.	.	16bb'o\	.	.
.	.	.	16ddd'\JJ	.	.
.	.	.	4fffn\	.	.
=-	=-	=-	=-	=-	=-
*	*	*	*head:normal	*	*
2.ryy	2.ryy	.	8.gTT</L	.	<
.	.	.	16f#X/Jk	.	.
.	.	.	8g/L	.	.
.	.	.	8b/J 8d/ 8G/	.	.
.	.	.	8b/L 8d/ 8B/	.	.
.	.	.	8b/J 8d/ 8G/	.	[
!!LO:LB:g=original
=-	=-	=-	=-	=-	=-
2.ryy	2.ryy	.	8.gTT</L	.	<
.	.	.	16f#X/J	.	.
.	.	.	8g/L	.	.
.	.	.	8dd/J 8d/ 8G/	.	.
.	.	.	8dd/L 8d/ 8B/	.	.
.	.	.	8dd/J 8d/ 8G/	.	[
=-	=-	=-	=	=	=
2.ryy	2.ryy	.	8dd/L 8d/ 8B/	.	<
.	.	.	8gg/J 8b/ 8d/	.	.
.	.	.	8gg/L 8b/ 8g/	.	.
.	.	.	8gg/J 8b/ 8d/	.	.
.	.	.	8.gTT</L	.	[
.	.	.	16f#X/Jk	.	.
=-	=-	=-	=-	=-	=-
2.ryy	2.ryy	.	8g/	.	.
!	!	!	!LO:TX:t=P:problem=mixed beam	!	!
.	.	.	(8G/L	.	.
!	!	!	!LO:TX:t=P:problem=główka nuty - romb (flażolet)	!	!
.	.	.	8ggg\J)	.	.
.	.	.	16g/LL	.	.
.	.	.	16a/JJ	.	.
.	.	.	8.btt</L	.	.
.	.	.	16a#X/Jk	.	.
=-	=-	=-	=	=	=
2.ryy	2.ryy	.	8b/	.	.
!	!	!	!LO:TX:t=P:problem=mixed beam	!	!
.	.	.	(8G/L	.	.
!	!	!	!LO:TX:t=P:problem=główka nuty - romb (flażolet)	!	!
.	.	.	8ggg\J)	.	.
.	.	.	16b\LL 16g\	.	.
.	.	.	16cc\JJ 16a\	.	.
.	.	.	8.ddTT\L 8.b\	.	.
.	.	.	16cc#X\Jk 16a#X\	.	.
=-	=-	=-	=	=	=
2.ryy	2.ryy	.	8dd\ 8b\	.	.
.	.	.	(8G/L	.	.
!	!	!	!LO:TX:t=P:problem=główka nuty - romb (flażolet)	!	!
.	.	.	8ggg\J)	.	.
.	.	.	16ffn\LL 16dd\	.	.
.	.	.	16ee\JJ 16cc\	.	.
.	.	.	8dd\L 8b\	.	.
.	.	.	8cc\J 8a\	.	.
=-	=-	=-	=-	=-	=-
2.ryy	2.ryy	.	8b\L 8g\	.	.
.	.	.	8G\J	.	.
!!LO:LB:g=original
.	.	.	16b\LL 16g\	.	.
.	.	.	16a\ 16f#X\	.	.
.	.	.	16b\ 16g\	.	.
.	.	.	16cc\JJ 16a\	.	.
!	!	!	!LO:TX:t=P:problem=mixed beam	!	!
.	.	.	8dd\L 8b\	.	.
.	.	.	8G/J	.	.
=-	=-	=-	=-	=-	=-
2.ryy	2.ryy	.	(16dd\LL	.	.
.	.	.	16aa\)	.	.
.	.	.	(16aa\	.	.
.	.	.	16gg\JJ)	.	.
!	!	!	!LO:TX:t=P:problem=mixed beam	!	!
.	.	.	8dd\L 8b\	.	.
.	.	.	8G/J	.	.
.	.	.	(16dd\LL	.	.
.	.	.	16aa\)	.	.
.	.	.	(16aa\	.	.
.	.	.	16gg\JJ)	.	.
=-	=-	=-	=-	=-	=-
2.ryy	2.ryy	.	(16dd\LL	.	.
.	.	.	16aa\)	.	.
.	.	.	(16aa\	.	.
.	.	.	16gg\JJ)	.	.
.	.	.	(16ee-X\LL	.	.
.	.	.	16aa\)	.	.
.	.	.	(16aa\	.	.
.	.	.	16gg\JJ)	.	.
.	.	.	(16een\LL	.	.
.	.	.	16aa\)	.	.
.	.	.	(16aa\	.	.
.	.	.	16gg\JJ)	.	.
=144	=144	=144	=144-	=144-	=144-
*	*^	*	*	*	*
*	*	*cue	*	*	*	*
2r	2rc	16ffn/LL	.	(16ffn\LL	.	.
.	.	16aa/	.	16aa\)	.	.
.	.	16aa/	.	(16aa\	.	.
.	.	16gg/JJ	.	16gg\JJ)	.	.
.	.	16ff#X/LL	.	(16ff#X\LL	.	.
.	.	16aa/	.	16aa\)	.	.
.	.	16aa/	.	(16aa\	.	.
.	.	16gg/JJ	.	16gg\JJ)	.	.
4r	4re	16gg/LL	.	(16gg\LL	.	.
.	.	16aa/	.	16aa\)	.	.
.	.	16aa/	.	(16aa\	.	.
.	.	16gg/JJ	.	16gg\JJ)	.	.
*	*	*Xcue	*	*	*	*
!	!	!	!	!LO:LB:g=original	!	!
*	*v	*v	*	*	*	*
=145	=145	=145	=145	=145	=145
!LO:TX:t=P:problem=mixed beam	!	!LO:DY:rj	!	!	!
8GG/L 8GGG/	8gg\ 8g\	ff	2.ggTT\	.	.
8d\J 8B\ 8D\	(8g\L 8G\	.	.	.	.
8d\L 8B\ 8D\	8ggg\J 8gg\)	.	.	.	.
8B\J 8D\	16ffn\LL 16fn\	.	.	.	.
.	16ee\JJ 16e\	.	.	.	.
8B\L 8D\	8dd\L 8d\	.	.	.	.
8A\J 8E-X\	8cc\J 8c\	.	.	.	.
=146	=146	=146	=146	=146	=146
!LO:TX:t=P:problem=mixed beam	!	!	!	!	!
8GG/L 8GGG/	8b\ 8B\	.	2.ggTT\	.	.
8d\J 8B\ 8D\	8g\L 8G\	.	.	.	.
8d\L 8B\ 8D\	8ggg\J 8gg\	.	.	.	.
8B\J 8D\	16ffn\LL 16fn\	.	.	.	.
.	16ee\JJ 16e\	.	.	.	.
8B\L 8D\	8dd\L 8d\	.	.	.	.
8A\J 8E-X\	8cc\J 8c\	.	.	.	.
!LO:LB:g=original	!LO:LB:g=original	!	!	!	!
=147	=147	=147	=147	=147	=147
!LO:TX:t=P:problem=mixed beam	!	!	!	!	!
8GG/L 8GGG/	16b/LL 16B/	.	2.ggTT\	.	.
.	16a/ 16A/	.	.	.	.
8G\J 8Fn\ 8D\	16b/ 16B/	.	.	.	.
.	16cc/JJ 16c/	.	.	.	.
8B\L 8G\ 8F\ 8D\	4.dd/ 4.d/	.	.	.	.
8B\J 8G\ 8F\ 8D\	.	.	.	.	.
!LO:TX:t=P:problem=mixed beam	!	!	!	!	!
8GGG/L	.	.	.	.	.
8B\J 8F\ 8D\	8g/ 8G/	.	.	.	.
=148	=148	=148	=148	=148	=148
!LO:TX:t=P:problem=mixed beam	!	!	!	!	!
8GG/L 8GGG/	16dd\LL 16d\	.	2.bbtt\	.	.
.	16cc#X\ 16c#X\	.	.	.	.
8B\J 8G\ 8Fn\ 8D\	16dd\ 16d\	.	.	.	.
.	16ee\JJ 16e\	.	.	.	.
8d\L 8B\ 8G\ 8F\ 8D\	4.ffn\ 4.fn\	.	.	.	.
8d\J 8B\ 8G\ 8F\ 8D\	.	.	.	.	.
!LO:TX:t=P:problem=mixed beam	!	!	!	!	!
8GGG/L	.	.	.	.	.
8d\J 8B\ 8G\ 8F\ 8D\	8ff\ 8f\	.	.	.	.
=149	=149	=149	=149	=149	=149
*tremolo	*	*	*	*	*
32GGG/LLL	2.ffn\ 2.b\ 2.fn\	.	16bb\LL	.	.
32GG/	.	.	.	.	.
32GGG/	.	.	16aa\	.	.
32GG/	.	.	.	.	.
32GGG/	.	.	16bb\	.	.
32GG/	.	.	.	.	.
32GGG/	.	.	16ccc\JJ	.	.
32GG/	.	.	.	.	.
32GGG/	.	.	16ddd\LL	.	.
32GG/	.	.	.	.	.
32GGG/	.	.	16ccc#X\	.	.
32GG/	.	.	.	.	.
32GGG/	.	.	16ddd\	.	.
32GG/	.	.	.	.	.
32GGG/	.	.	16eee\JJ	.	.
32GG/	.	.	.	.	.
32GGG/	.	.	16fffn\LL	.	.
32GG/	.	.	.	.	.
32GGG/	.	.	16ccc#\	.	.
32GG/	.	.	.	.	.
32GGG/	.	.	16ddd\	.	.
32GG/	.	.	.	.	.
32GGG/	.	.	16eee\JJ	.	.
32GG/JJJ	.	.	.	.	.
=150	=150	=150	=150	=150	=150
32GGG/LLL	2.ffn\ 2.b\ 2.fn\	.	16fffn\LL	.	.
32GG/	.	.	.	.	.
32GGG/	.	.	16eee\	.	.
32GG/	.	.	.	.	.
32GGG/	.	.	16fff\	.	.
32GG/	.	.	.	.	.
32GGG/	.	.	16ggg\JJ	.	.
32GG/	.	.	.	.	.
32GGG/	.	.	16aaa\LL	.	.
32GG/	.	.	.	.	.
32GGG/	.	.	16eee\	.	.
32GG/	.	.	.	.	.
32GGG/	.	.	16fff\	.	.
32GG/	.	.	.	.	.
32GGG/	.	.	16ggg\JJ	.	.
32GG/	.	.	.	.	.
32GGG/	.	.	16aaa\LL	.	.
32GG/	.	.	.	.	.
32GGG/	.	.	16ggg\	.	.
32GG/	.	.	.	.	.
32GGG/	.	.	16aaa\	.	.
32GG/	.	.	.	.	.
32GGG/	.	.	16bbb\JJ	.	.
32GG/JJJ	.	.	.	.	.
*Xtremolo	*	*	*	*	*
!	!	!	!LO:LB:g=original	!	!
=151||	=151||	=151||	=151||	=151||	=151||
*k[]	*k[]	*	*k[]	*	*
!LO:TX:t=P:problem=mixed beam	!	!LO:DY:rj	!	!	!
8CC/L 8CCC/	8ee\ 8cc\ 8e\	ff	8dddd\	.	.
8e\J 8G\ 8E\	(8cc\L 8c\	.	8r	.	.
8e\L 8G\ 8E\	8cccc\J 8ccc\)	.	4r	.	.
8e\J 8G\ 8E\	16cc\LL 16c\	.	.	.	.
.	16dd\JJ 16d\	.	.	.	.
!LO:TX:t=P:problem=mixed beam	!	!	!	!	!
8BB-X/L 8BBB-X/	8.ee\L 8.e\	.	4r	.	.
8e\J 8G\ 8E\	.	.	.	.	.
.	16dd#X\Jk 16d#X\	.	.	.	.
=152	=152	=152	=152	=152	=152
!LO:TX:t=P:problem=mixed beam	!	!	!LO:TX:a:t=7	!	!
8AA/L 8AAA/	16ee\LL 16e\	.	2r	.	.
.	16aa\JJ 16a\	.	.	.	.
8c#X\J 8A\ 8E\ 8C#X\	16aa\LL 16a\	.	.	.	.
.	16gg\JJ 16g\	.	.	.	.
!LO:TX:t=P:problem=mixed beam	!	!	!	!	!
8d\L 8A\ 8F\ 8D\	4.ffX\ 4.fX\	.	.	.	.
8AA/J 8AAA/	.	.	.	.	.
!LO:TX:t=P:problem=mixed beam	!	!	!	!	!
8AA-X/L 8AAA-X/	.	.	4r	.	.
8d\J 8c#\ 8A-X\ 8F#X\ 8D\	8ff#X\ 8f#X\	.	.	.	.
!LO:LB:g=original	!LO:LB:g=original	!	!	!	!
=153	=153	=153	=153	=153	=153
!LO:TX:t=P:problem=mixed beam	!	!	!	!	!
8GG/L 8GGG/	8gg\ 8g\	.	2.r	.	.
8d/J 8B/ 8D/	8g\L 8G\	.	.	.	.
8d\L 8B\ 8G\ 8D\	8ggg\J 8gg\	.	.	.	.
8B\J 8G\ 8D\	16ff\LL 16f\	.	.	.	.
.	16ee\JJ 16e\	.	.	.	.
8B\L 8G\ 8D\	8dd\L 8d\	.	.	.	.
8A\J 8G\ 8E-X\	8cc\J 8c\	.	.	.	.
=154	=154	=154	=154	=154	=154
!LO:TX:t=P:problem=mixed beam	!	!	!	!	!
8GG/L 8GGG/	16b\LL 16B\	.	2.r	.	.
.	16a\ 16A\	.	.	.	.
8d/J 8G/ 8F/ 8D/	16b\ 16B\	.	.	.	.
.	16cc\JJ 16c\	.	.	.	.
8B\L 8G\ 8F\ 8D\	4.dd\ 4.d\	.	.	.	.
8B\J 8G\ 8F\ 8D\	.	.	.	.	.
!LO:TX:t=P:problem=mixed beam	!	!	!	!	!
8GG/L 8GGG/	.	.	.	.	.
8B/J 8F/ 8D/	8g/ 8G/	.	.	.	.
=155	=155	=155	=155	=155	=155
!LO:TX:t=P:problem=mixed beam	!	!	!	!	!
8C/L 8CC/	16ee\LL 16e\	.	2.r	.	.
.	16gg\ 16g\	.	.	.	.
8c/J 8A/ 8F#X/	16ff#X\ 16f#X\	.	.	.	.
.	16dd#X\JJ 16d#X\	.	.	.	.
8c\L 8G\	4.ee\ 4.e\	.	.	.	.
8c\J 8G\	.	.	.	.	.
!LO:TX:t=P:problem=mixed beam	!	!	!	!	!
8AA/L 8AAA/	.	.	.	.	.
8c#X/J 8G/	8ee\ 8e\	.	.	.	.
=156	=156	=156	=156	=156	=156
!LO:TX:t=P:problem=mixed beam	!	!	!	!	!
8D/L 8DD/	16dd\LL 16d\	.	2.r	.	.
.	16cc#X\ 16c#X\	.	.	.	.
8A/J 8F/	16dd\ 16d\	.	.	.	.
.	16ee\JJ 16e\	.	.	.	.
!LO:TX:t=P:problem=mixed beam	!	!	!	!	!
8D\L 8DD\	16ff\LL 16f\	.	.	.	.
.	16ee\ 16e\	.	.	.	.
8d\J 8A\ 8F\	16ff\ 16f\	.	.	.	.
.	16gg\JJ 16g\	.	.	.	.
8E\L 8EE\	8aa\L 8a\	.	.	.	.
8c#X\J 8G\	8a\J 8A\	.	.	.	.
=157	=157	=157	=157	=157	=157
8F\L 8FF\	8.a\L 8.A\	.	2.r	.	.
8d\J 8F\	.	.	.	.	.
.	16ff\Jk 16f\	.	.	.	.
8d\L 8A\ 8F\	4ff\ 4f\	.	.	.	.
8d\J 8A\ 8F\	.	.	.	.	.
8GG\L	8ee\L 8e\	.	.	.	.
8B\J 8F\	8dd\J 8d\	.	.	.	.
=158	=158	=158	=158	=158	=158
2.C/ 2.CC/	8cc\L 8c\	.	2.r	.	.
.	16cc\L 16e\	.	.	.	.
.	16cc\JJ 16e\	.	.	.	.
.	8cc\L 8e\	.	.	.	.
.	8cc\J 8e\	.	.	.	.
.	8cc\L 8e\	.	.	.	.
.	8cc\J 8e\	.	.	.	.
!LO:LB:g=original	!LO:LB:g=original	!	!	!	!
=159	=159	=159	=159	=159	=159
!	!	!	!LO:TX:a:t=F	!	!
!	!	!	!LO:TX:t=P:problem=takty 158-170 wykreslone i wstawiony fragment (dopisany na końcu) zaznaczony literą F - tożsamy z wykreślonym pod względem dźwięków, różni się belkowaniem, caudami i palcowaniem	!	!
8C/L	8a\L 8e\	.	(16ee\LL	.	.
.	.	p	16aa\)	.	.
8C#X/J	8a\J 8e\	.	(16aa\	.	.
.	.	.	16gg\JJ)	.	.
4D/	8a\L 8d\	.	4.ff\	.	.
.	16a\L 16d\	.	.	.	.
.	16a\JJ 16d\	.	.	.	.
4DD/	8a\L 8d\	.	.	.	.
.	8a\J 8d\	.	8ff\	.	.
=160	=160	=160	=160	=160	=160
16D\LL 16GG\	8r	ff	2r	.	.
16G\JJ	.	.	.	.	.
16G\LL	8b\ 8g\ 8B\	.	.	.	.
16F\JJ	.	.	.	.	.
8E\L 8C\	2cc\ 2g\ 2c\	.	.	.	.
16GG\L	.	.	.	.	.
16GG\JJ	.	.	.	.	.
8C/L	.	.	4r	.	.
8CCC/J	.	.	.	.	.
=161	=161	=161	=161	=161	=161
8C\L	8a\L 8e\	.	(16ee\LL	.	.
.	.	p	16aa\)	.	.
8C#X\J	8a\J 8e\	.	(16aa\	.	.
.	.	.	16gg\JJ)	.	.
4D\	8a\L 8d\	.	4.ff\	.	.
.	16a\L 16d\	.	.	.	.
.	16a\JJ 16d\	.	.	.	.
4DD/	8a\L 8d\	.	.	.	.
.	8a\J 8d\	.	8ff\	.	.
=162	=162	=162	=162	=162	=162
16D\LL 16GG\	8r	ff	2r	.	.
16G\JJ	.	.	.	.	.
16G\LL	8b\ 8g\ 8B\	.	.	.	.
16F\JJ	.	.	.	.	.
8E\L 8C\	2cc\ 2g\ 2c\	.	.	.	.
16GG\L	.	.	.	.	.
16GG\JJ	.	.	.	.	.
8C/L	.	.	4r	.	.
8CCC/J	.	.	.	.	.
=163	=163	=163	=163	=163	=163
4GG#X/ 4GGG#X/	8e/L 8B/	<	(16b\LL	.	.
.	.	.	16ee\)	.	.
.	8e/J 8B/	.	(16ee\	.	.
.	.	.	16dd\JJ)	.	.
2AA/ 2AAA/	8e/L 8A/	.	4.cc\	.	.
.	16e/L 16A/	.	.	.	.
.	16e/JJ 16A/	.	.	.	.
.	8e/L 8A/	.	.	.	.
.	8e/J 8A/	.	8cc\	.	.
!	!	!	!LO:LB:g=original	!	!
=164	=164	=164	=164	=164	=164
4BB/ 4BBB/	8g/L 8d/	.	(16dd\LL	.	.
.	.	.	16gg\)	.	.
.	8g/J 8d/	.	(16gg\	.	.
.	.	.	16ff\JJ)	.	.
2C/ 2CC/	8g/L 8c/	.	4.ee\	.	.
.	16g/L 16c/	.	.	.	.
.	16g/JJ 16c/	.	.	.	.
.	8g/L 8c/	.	.	.	.
.	8a/J 8c/	[	8dd#X\	.	.
!LO:LB:g=original	!LO:LB:g=original	!	!	!	!
=165	=165	=165	=165	=165	=165
2.GG/ 2.GGG/	4cc\ 4e\	mf	(16ee\LL	.	.
.	.	.	16aa\)	.	.
.	.	.	(16aa\	.	.
.	.	.	16gg\JJ)	.	.
.	4g\ 4c\	.	(16cc\LL	.	.
.	.	.	16ff\)	.	.
.	.	.	(16ff\	.	.
.	.	.	16ee\JJ)	.	.
.	4e\ 4G\	.	(16g\LL	2	.
.	.	.	16dd\)	.	.
.	.	.	(16dd\	.	.
.	.	.	16cc\JJ)	.	.
=166	=166	=166	=166	=166	=166
2.GG/ 2.GGG/	4e-X</ 4F#X</	.	(16f#X\LL	.	.
.	.	.	16b\)	.	.
.	.	.	(16b\	.	.
.	.	.	16a\JJ)	.	.
.	4f#X/ 4A/	.	(16a\LL	.	.
.	.	.	16dd\)	.	.
.	.	.	(16dd\	.	.
.	.	.	16cc\JJ)	.	.
.	4a/ 4c/	.	(16cc\LL	.	.
.	.	.	16gg\)	.	.
.	.	.	(16gg\	.	.
.	.	.	16ff#X\JJ)	.	.
=167	=167	=167	=167	=167	=167
2.GG/ 2.GGG/	4cc\ 4e\	>	(16ee\LL	.	.
.	.	.	16aa\)	.	.
.	.	.	(16aa\	.	.
.	.	.	16gg\JJ)	.	.
.	4g\ 4c\	.	(16cc\LL	.	.
.	.	.	16ffn\)	.	.
.	.	.	(16ff\	.	.
.	.	.	16ee\JJ)	.	.
.	4e/ 4G/	]]	(16g\LL	.	.
.	.	.	16dd\)	.	.
.	.	.	(16dd\	.	.
.	.	.	16cc\JJ)	.	.
!	!	!	!LO:LB:g=original	!	!
=168	=168	=168	=168	=168	=168
2.GG/ 2.GGG/	4e-X</ 4F#X</	<	(16f#X/LL	.	.
.	.	.	16b/)	.	.
.	.	.	(16b/	.	.
.	.	.	16a/JJ)	.	.
.	4f#X/ 4A/	.	(16a\LL	.	.
.	.	.	16dd\)	.	.
.	.	.	(16dd\	.	.
.	.	.	16cc\JJ)	.	.
.	4a/ 4c/	[[	(16cc\LL	.	.
.	.	.	16gg\)	.	.
.	.	.	(16gg\	.	.
.	.	.	16ff#X\JJ)	.	.
=169	=169	=169	=169	=169	=169
2.GG/ 2.GGG/	4cc\ 4e\	.	(16ee\LL	.	.
.	.	.	16aa\)	.	.
.	.	.	(16aa\	.	.
.	.	.	16gg\JJ)	.	.
.	4g\ 4c\	.	(16cc\LL	.	.
.	.	.	16ffn\)	.	.
.	.	.	(16ff\	.	.
.	.	.	16ee\JJ)	.	.
.	4cc\ 4e\	.	(16ee\LL	.	.
.	.	.	16aa\)	.	.
.	.	.	(16aa\	.	.
.	.	.	16gg\JJ)	.	.
=170	=170	=170	=170	=170	=170
2.GG/ 2.GGG/	4cc#X\ 4e\	<	(16ee\LL	.	.
.	.	.	16aa\)	.	.
.	.	.	(16aa\	.	.
.	.	.	16gg\JJ)	.	.
.	4g\ 4c#X\	.	(16cc#X\LL	.	.
.	.	.	16ff\)	.	.
.	.	.	(16ff\	.	.
.	.	.	16ee\JJ)	.	.
.	4cc#\ 4e\	.	(16ee\LL	.	.
.	.	.	16aa\)	.	.
.	.	.	(16aa\	.	.
.	.	.	16gg\JJ)	.	.
=171	=171	=171	=171	=171	=171
2.GG/ 2.GGG/	4dd\ 4f\	.	(16ff\LL	.	.
.	.	.	16aa\)	.	.
.	.	.	(16aa\	.	.
.	.	.	16gg\JJ)	.	.
.	4ee-X\ 4f#X\	.	(16ff#X\LL	2	.
.	.	.	16aa\)	.	.
.	.	.	(16aa\	.	.
.	.	.	16gg\JJ)	.	.
.	4een\ 4g\	.	(16gg\LL	.	.
.	.	.	16aa\)	.	.
.	.	.	(16aa\	.	.
.	.	.	16gg\JJ)	.	.
!	!	!	!LO:PB:g=original	!	!
=172	=172	=172	=172	=172	=172
!	!	!	!LO:TX:a:t=F	!	!
2.GG/ 2.GGG/	2.ff\ 2.g\	[[	(16bb\LL	.	.
.	.	.	16gg\	.	.
.	.	.	16aa\	.	.
.	.	.	16gg\JJ)	.	.
.	.	.	(16bb\LL	.	.
.	.	.	16gg\	.	.
.	.	.	16aa\	.	.
.	.	.	16gg\JJ)	.	.
.	.	.	(16ggg\LL	.	.
.	.	.	16gg\	.	.
.	.	.	16aa\	.	.
.	.	.	16gg\JJ)	.	.
!LO:LB:g=original	!LO:LB:g=original	!	!	!	!
=173	=173	=173	=173	=173	=173
2.C/ 2.CC/	4ee\ 4g\	f	8ccc\L	.	ff
.	.	.	16cc\L 16e'\	.	.
.	.	.	16cc\JJ 16e'\	.	.
.	4g\ 4c\	.	(16cc\LL 16e\	.	.
.	.	.	16gg\ 16cc\)	.	.
.	.	.	16gg\ 16cc'\	.	.
.	.	.	16gg\JJ 16cc'\	.	.
.	4ee\ 4g\	.	(16gg\LL 16cc\	.	.
.	.	.	16cc\ 16e\)	.	.
.	.	.	16cc\ 16e'\	.	.
.	.	.	16cc\JJ 16e'\	.	.
=174	=174	=174	=174	=174	=174
2.GG/ 2.GGG/	4r	.	(16d/LL (16G/	.	.
.	.	.	16b/ 16d/))	.	.
.	.	.	16b/ 16d'/	.	.
.	.	.	16b/JJ 16d'/	.	.
.	4g\ 4B\	.	(16b/LL 16d/	.	.
.	.	.	16gg/ 16b/)	.	.
.	.	.	16gg/ 16b'/	.	.
.	.	.	16gg/JJ 16b'/	.	.
.	4ff\ 4g\	.	(16gg/LL 16b/	.	.
.	.	.	16b/ 16d/)	.	.
.	.	.	16b/ 16d'/	.	.
.	.	.	16b/JJ 16d'/	.	.
=175	=175	=175	=175	=175	=175
2.C/ 2.CC/	4r	.	(16e/LL 16c/	.	.
.	.	.	16cc/ 16e/)	.	.
.	.	.	16cc/ 16e'/	.	.
.	.	.	16cc/JJ 16e'/	.	.
.	4g\ 4c\	.	(16cc\LL 16e\	.	.
.	.	.	16gg\ 16cc\)	.	.
.	.	.	16gg\ 16cc'\	.	.
.	.	.	16gg\JJ 16cc'\	.	.
.	4ee\ 4g\	.	(16gg\LL 16cc\	.	.
.	.	.	16cc\ 16e\)	.	.
.	.	.	16cc\ 16e'\	.	.
.	.	.	16cc\JJ 16e'\	.	.
!	!	!	!LO:LB:g=original	!	!
=176	=176	=176	=176	=176	=176
2.GG/ 2.GGG/	4r	.	(16d/LL 16G/	.	.
.	.	.	16b/ 16d/)	.	.
.	.	.	16b/ 16d'/	.	.
.	.	.	16b/JJ 16d'/	.	.
.	4g\ 4B\	.	(16b\LL 16d\	.	.
.	.	.	16gg\ 16b\)	.	.
.	.	.	16gg\ 16b'\	.	.
.	.	.	16gg\JJ 16b'\	.	.
.	4ff\ 4g\	.	(16gg\LL 16b\	.	.
.	.	.	16b\ 16d\)	.	.
.	.	.	16b\ 16d'\	.	.
.	.	.	16b\JJ 16d'\	.	.
=177	=177	=177	=177	=177	=177
2.C/ 2.CC/	4ee\ 4g\	.	(16e/LL 16c/	.	.
.	.	.	16cc/ 16e/)	.	.
.	.	.	16cc/ 16e'/	.	.
.	.	.	16cc/JJ 16e'/	.	.
.	4c/ 4G/	<	(16cc\LL 16e\	.	.
.	.	.	16cc\ 16g\)	.	.
.	.	.	16cc\ 16g'\	.	.
.	.	.	16cc\JJ 16g'\	.	.
.	4e/ 4c/	.	(16cc\LL 16g\	.	.
.	.	.	16ee\ 16g\)	.	.
.	.	.	16ee\ 16g'\	.	.
.	.	.	16ee\JJ 16g'\	.	.
=178	=178	=178	=178	=178	=178
2.C/ 2.CC/	4e/ 4c/	.	(16ee\LL 16g\	.	.
.	.	.	16ee\ 16cc\)	.	.
.	.	.	16ee\ 16cc'\	.	.
.	.	.	16ee\JJ 16cc'\	.	.
.	4g/ 4e/	.	(16ee\LL 16cc\	.	.
.	.	.	16gg\ 16cc\)	.	.
.	.	.	16gg\ 16cc'\	.	.
.	.	.	16gg\JJ 16cc'\	.	.
.	4g/ 4e/	.	(16gg\LL 16cc\	.	.
*	*	*	*	*below	*
.	.	.	16gg\ 16ee\)	1 3	.
.	.	.	16gg\ 16ee'\	.	.
.	.	.	16gg\JJ 16ee'\	.	.
=179	=179	=179	=179	=179	=179
2.C/ 2.CC/	4cc\ 4e\	.	(16gg\LL 16ee\	.	.
.	.	.	16ccc\ 16ee\)	1 2	.
.	.	.	16ccc\ 16ee'\	.	.
.	.	.	16ccc\JJ 16ee'\	.	.
.	4dd\ 4g\	.	(16ccc\LL 16ee\	.	.
.	.	.	16ccc\ 16gg\)	.	.
.	.	.	16ccc\ 16gg'\	.	.
.	.	.	16ccc\JJ 16gg'\	.	.
.	4ee\ 4cc\	.	(16ccc\LL 16gg\	.	.
.	.	.	16eee\ 16gg\)	1 2	.
.	.	.	16eee\ 16gg'\	.	.
.	.	.	16eee\JJ 16gg'\	.	.
=180	=180	=180	=180	=180	=180
2.C/ 2.CC/	4ee\ 4cc\	.	(16eee\LL 16gg\	.	.
.	.	.	16eee\ 16ccc\)	4 2	.
.	.	.	16eee\ 16ccc'\	.	.
.	.	.	16eee\JJ 16ccc'\	.	.
.	4gg\ 4ee\	.	(16eee\LL 16ccc\	.	.
.	.	.	16ggg\ 16eee\)	3 1	.
.	.	.	16ggg\ 16eee'\	.	.
.	.	.	16ggg\JJ 16eee'\	.	.
.	4gg\ 4ee\	[[	(16ggg\LL (16eee\	.	.
.	.	.	16ggg\ 16eee\))	.	.
.	.	.	16ggg\ 16eee'\	.	.
.	.	.	16ggg\JJ 16eee'\	.	.
!LO:LB:g=original	!LO:LB:g=original	!	!	!	!
=181	=181	=181	=181	=181	=181
!LO:TX:t=P:problem=mixed beam	!	!LO:DY:t=ff	!	!	!
8C/L 8CC/	8ccc\L 8ee\	ff	4cccc\ 4eee\	3 4	.
16G\L	16g\L	.	.	.	.
16G\JJ	16g\JJ	.	.	.	.
8G\L	8g\L	.	4r	.	.
8G\J	8g\J	.	.	.	.
8G\L	8g\L	.	4r	.	.
8G\J	8g\J	.	.	.	.
=182	=182	=182	=182	=182	=182
*tremolo	*	*	*	*	*
!	!	!	!LO:TX:a:t=7.	!	!
32GGG/LLL	2ee\ 2g\ 2B\	.	2r	.	.
32GG/	.	.	.	.	.
32GGG/	.	.	.	.	.
32GG/	.	.	.	.	.
32GGG/	.	.	.	.	.
32GG/	.	.	.	.	.
32GGG/	.	.	.	.	.
32GG/	.	.	.	.	.
32GGG/	.	.	.	.	.
32GG/	.	.	.	.	.
32GGG/	.	.	.	.	.
32GG/	.	.	.	.	.
32GGG/	.	.	.	.	.
32GG/	.	.	.	.	.
32GGG/	.	.	.	.	.
32GG/	.	.	.	.	.
32GGG/	8.dd\L 8.f\ 8.B\	.	4r	.	.
32GG/	.	.	.	.	.
32GGG/	.	.	.	.	.
32GG/	.	.	.	.	.
32GGG/	.	.	.	.	.
32GG/	.	.	.	.	.
32GGG/	16cc\Jk	.	.	.	.
32GG/JJJ	.	.	.	.	.
*Xtremolo	*	*	*	*	*
=183	=183	=183	=183	=183	=183
!LO:TX:t=P:problem=mixed beam	!	!	!	!	!
8CC/L	8cc\L 8e\ 8c\	.	2.r	.	.
16G\L	16g\L	.	.	.	.
16G\JJ	16g\JJ	.	.	.	.
8G\L	8g\L	.	.	.	.
8G\J	8g\J	.	.	.	.
8G\L	8g\L	.	.	.	.
8G\J	8g\J	.	.	.	.
=184	=184	=184	=184	=184	=184
*tremolo	*	*	*	*	*
32GGG/LLL	2ee\ 2g\ 2B\	.	2.r	.	.
32GG/	.	.	.	.	.
32GGG/	.	.	.	.	.
32GG/	.	.	.	.	.
32GGG/	.	.	.	.	.
32GG/	.	.	.	.	.
32GGG/	.	.	.	.	.
32GG/	.	.	.	.	.
32GGG/	.	.	.	.	.
32GG/	.	.	.	.	.
32GGG/	.	.	.	.	.
32GG/	.	.	.	.	.
32GGG/	.	.	.	.	.
32GG/	.	.	.	.	.
32GGG/	.	.	.	.	.
32GG/	.	.	.	.	.
32GGG/	8.dd\L 8.f\ 8.B\	.	.	.	.
32GG/	.	.	.	.	.
32GGG/	.	.	.	.	.
32GG/	.	.	.	.	.
32GGG/	.	.	.	.	.
32GG/	.	.	.	.	.
32GGG/	16cc\Jk	.	.	.	.
32GG/JJJ	.	.	.	.	.
*Xtremolo	*	*	*	*	*
=185	=185	=185	=185	=185	=185
!LO:TX:t=P:problem=mixed beam	!	!	!	!	!
8CC/L	8cc\L 8e\ 8c\	.	2.r	.	.
16G\L	16g\L	.	.	.	.
16G\JJ	16g\JJ	.	.	.	.
8G\L	8g\L	.	.	.	.
8G\J	8g\J	.	.	.	.
8E\L	8cc\L 8e\ 8c\	.	.	.	.
8G\J	8g\J	.	.	.	.
=186	=186	=186	=186	=186	=186
!LO:TX:t=P:problem=mixed beam	!	!	!	!	!
8CC/L	8cc\L 8e\ 8c\	.	2.r	.	.
16G\L	16g\L	.	.	.	.
16G\JJ	16g\JJ	.	.	.	.
8G\L	8g\L	.	.	.	.
8G\J	8g\J	.	.	.	.
8E\L	8cc\L 8e\ 8c\	.	.	.	.
8G\J	8g\J	.	.	.	.
=187	=187	=187	=187	=187	=187
*tremolo	*	*	*	*	*
32CC/LLL	4cc\ 4e\ 4c\	.	2.r	.	.
32C/	.	.	.	.	.
32CC/	.	.	.	.	.
32C/	.	.	.	.	.
32CC/	.	.	.	.	.
32C/	.	.	.	.	.
32CC/	.	.	.	.	.
32C/	.	.	.	.	.
32CC/	4cc\ 4e\ 4c\	.	.	.	.
32C/	.	.	.	.	.
32CC/	.	.	.	.	.
32C/	.	.	.	.	.
32CC/	.	.	.	.	.
32C/	.	.	.	.	.
32CC/	.	.	.	.	.
32C/	.	.	.	.	.
32CC/	4gg\ 4cc\ 4e\	.	.	.	.
32C/	.	.	.	.	.
32CC/	.	.	.	.	.
32C/	.	.	.	.	.
32CC/	.	.	.	.	.
32C/	.	.	.	.	.
32CC/	.	.	.	.	.
32C/JJJ	.	.	.	.	.
*tremolo	*	*	*	*	*
=188	=188	=188	=188	=188	=188
!	!LO:TX:b:t=Fine.	!	!LO:TX:b:t=Fine.	!	!
.	32qqc</ 32qqE</	.	.	.	.
2.CC/ 2.CCC/	2.c</ 2.E</	.	2.r	.	.
==	==	==	==	==	==
*-	*-	*-	*-	*-	*-
!!!system-decoration: {(s1,s2)}[(s3)]
!!!RDF**dynam: p = p.
!!!RDF**dynam: f = f.
!!!RDF**dynam: mf = mf.
!!!RDF**dynam: pp = pp.
!!!RDF**kern: > = above
!!!RDF**kern: < = below
!!!EED: Andrzej Borzym
!!!EST: 2021-05-21
!!!AIN: 1 empty 1 forte 1 violn
!!!ENC: Tomasz Grochalski
!!!END: 2021-05-04
